; generated by Slic3r 1.2.9 on 2015-10-09 at 12:30:39

; external perimeters extrusion width = 0.40mm
; perimeters extrusion width = 0.67mm
; infill extrusion width = 0.67mm
; solid infill extrusion width = 0.67mm
; top infill extrusion width = 0.67mm
; support material extrusion width = 0.40mm

; external perimeters extrusion width = 0.40mm
; perimeters extrusion width = 0.67mm
; infill extrusion width = 0.67mm
; solid infill extrusion width = 0.67mm
; top infill extrusion width = 0.67mm
; support material extrusion width = 0.40mm

M104 S215 T0 ; set temperature
M104 S215 T1 ; set temperature
G28 ; home all axes
M106 ; Fan on
M109 S215 T0 ; wait for temperature to be reached
M109 S215 T1 ; wait for temperature to be reached
G21 ; set units to millimeters
G90 ; use absolute coordinates
M82 ; use absolute distances for extrusion
G92 E0
T0
G92 E0
G1 E-4.00000 F780.00000
G92 E0
G1 Z0.260 F4200.000
G1 X93.654 Y95.475 F4200.000
G1 E4.00000 F780.00000
G1 X95.431 Y93.828 E4.12161 F1200.000
G1 X97.646 Y92.844 E4.24323
G1 X99.500 Y92.607 E4.33700
G1 X120.500 Y92.607 E5.39074
G1 X122.891 Y93.005 E5.51236
G1 X125.025 Y94.154 E5.63397
G1 X126.672 Y95.931 E5.75559
G1 X127.656 Y98.146 E5.87720
G1 X127.893 Y100.000 E5.97097
G1 X127.893 Y110.000 E6.47275
G1 X127.495 Y112.391 E6.59437
G1 X126.346 Y114.525 E6.71598
G1 X124.569 Y116.172 E6.83760
G1 X122.354 Y117.156 E6.95921
G1 X120.500 Y117.393 E7.05298
G1 X99.500 Y117.393 E8.10672
G1 X97.109 Y116.995 E8.22834
G1 X94.975 Y115.846 E8.34995
G1 X93.328 Y114.069 E8.47157
G1 X92.344 Y111.854 E8.59318
G1 X92.107 Y110.000 E8.68695
G1 X92.107 Y100.000 E9.18873
G1 X92.505 Y97.609 E9.31035
G1 X93.625 Y95.528 E9.42895
G1 X94.115 Y95.641 F4200.000
G1 X95.878 Y94.094 E9.54666 F1200.000
G1 X98.056 Y93.224 E9.66437
G1 X99.500 Y93.072 E9.73722
G1 X120.500 Y93.072 E10.79097
G1 X122.812 Y93.469 E10.90867
G1 X124.859 Y94.615 E11.02638
G1 X126.406 Y96.378 E11.14409
G1 X127.276 Y98.556 E11.26180
G1 X127.428 Y100.000 E11.33465
G1 X127.428 Y110.000 E11.83643
G1 X127.031 Y112.312 E11.95414
G1 X125.885 Y114.359 E12.07185
G1 X124.122 Y115.906 E12.18956
G1 X121.944 Y116.776 E12.30726
G1 X120.500 Y116.928 E12.38012
G1 X99.500 Y116.928 E13.43386
G1 X97.188 Y116.531 E13.55157
G1 X95.141 Y115.385 E13.66928
G1 X93.594 Y113.622 E13.78698
G1 X92.724 Y111.444 E13.90469
G1 X92.572 Y110.000 E13.97754
G1 X92.572 Y100.000 E14.47933
G1 X92.969 Y97.688 E14.59703
G1 X94.085 Y95.694 E14.71173
G1 E11.71173 F780.00000
G92 E0
T1
G92 E0
G1 X94.575 Y95.813 F4200.000
G1 X96.321 Y94.371 E0.11367 F1200.000
G1 X99.500 Y93.536 E0.27858
G1 X120.500 Y93.536 E1.33232
G1 X122.730 Y93.933 E1.44599
G1 X124.687 Y95.075 E1.55965
G1 X126.129 Y96.821 E1.67332
G1 X126.964 Y100.000 E1.83823
G1 X126.964 Y110.000 E2.34001
G1 X126.567 Y112.230 E2.45368
G1 X125.425 Y114.187 E2.56734
G1 X123.679 Y115.629 E2.68101
G1 X120.500 Y116.464 E2.84592
G1 X99.500 Y116.464 E3.89966
G1 X97.270 Y116.067 E4.01333
G1 X95.313 Y114.925 E4.12700
G1 X93.871 Y113.179 E4.24066
G1 X93.036 Y110.000 E4.40557
G1 X93.036 Y100.000 E4.90735
G1 X93.433 Y97.770 E5.02102
G1 X94.544 Y95.865 E5.13168
G1 E1.13168 F780.00000
G92 E0
G1 X108.776 Y109.276 F4200.000
G1 E4.00000 F780.00000
G1 X100.224 Y109.276 E4.42910 F1200.000
G1 X100.224 Y100.724 E4.85821
G1 X108.776 Y100.724 E5.28731
G1 X108.776 Y109.216 E5.71341
G1 X109.240 Y109.740 F4200.000
G1 X99.760 Y109.740 E6.18910 F1200.000
G1 X99.760 Y100.260 E6.66479
G1 X109.240 Y100.260 E7.14048
G1 X109.240 Y109.680 E7.61316
G1 X108.894 Y109.540 F4200.000
G1 E3.61316 F780.00000
G92 E0
G1 X108.500 Y101.237 F4200.000
G1 E4.00000 F780.00000
G1 X108.263 Y101.000 E4.01729 F1200.000
G1 X107.588 Y101.000 E4.05211
G1 X108.500 Y101.912 E4.11865
G1 X108.500 Y102.587 E4.15348
G1 X106.913 Y101.000 E4.26927
G1 X106.238 Y101.000 E4.30410
G1 X108.500 Y103.262 E4.46914
G1 X108.500 Y103.937 E4.50396
G1 X105.563 Y101.000 E4.71826
G1 X104.888 Y101.000 E4.75308
G1 X108.500 Y104.612 E5.01662
G1 X108.500 Y105.287 E5.05145
G1 X104.213 Y101.000 E5.36424
G1 X103.538 Y101.000 E5.39907
G1 X108.500 Y105.962 E5.76112
G1 X108.500 Y106.637 E5.79594
G1 X102.863 Y101.000 E6.20724
G1 X102.188 Y101.000 E6.24206
G1 X108.500 Y107.312 E6.70261
G1 X108.500 Y107.987 E6.73744
G1 X101.513 Y101.000 E7.24723
G1 X100.838 Y101.000 E7.28206
G1 X108.500 Y108.662 E7.84111
G1 X108.162 Y109.000 E7.86573
G1 X100.500 Y101.338 E8.42478
G1 X100.500 Y102.013 E8.45961
G1 X107.487 Y109.000 E8.96940
G1 X106.812 Y109.000 E9.00423
G1 X100.500 Y102.688 E9.46478
G1 X100.500 Y103.363 E9.49960
G1 X106.137 Y109.000 E9.91090
G1 X105.462 Y109.000 E9.94572
G1 X100.500 Y104.038 E10.30777
G1 X100.500 Y104.713 E10.34259
G1 X104.787 Y109.000 E10.65538
G1 X104.112 Y109.000 E10.69021
G1 X100.500 Y105.388 E10.95375
G1 X100.500 Y106.063 E10.98858
G1 X103.437 Y109.000 E11.20287
G1 X102.762 Y109.000 E11.23769
G1 X100.500 Y106.738 E11.40273
G1 X100.500 Y107.413 E11.43756
G1 X102.087 Y109.000 E11.55335
G1 X101.412 Y109.000 E11.58818
G1 X100.500 Y108.088 E11.65471
G1 X100.500 Y108.763 E11.68954
G1 X100.737 Y109.000 E11.70683
G1 E7.70683 F780.00000
G92 E0
G1 Z0.260 F4200.000
G1 Z0.260 F4200.000
T0
G92 E0
G1 E-1.00000 F780.00000
G92 E0
G1 X111.224 Y109.276 F4200.000
G1 E4.00000 F780.00000
G1 X111.224 Y100.724 E4.42910 F1200.000
G1 X119.776 Y100.724 E4.85821
G1 X119.776 Y109.276 E5.28731
G1 X111.284 Y109.276 E5.71341
G1 X110.760 Y109.740 F4200.000
G1 X110.760 Y100.260 E6.18910 F1200.000
G1 X120.240 Y100.260 E6.66479
G1 X120.240 Y109.740 E7.14048
G1 X110.820 Y109.740 E7.61316
G1 X110.960 Y109.394 F4200.000
G1 X111.737 Y109.000 F4200.000
G1 X111.500 Y108.763 E7.63044 F1200.000
G1 X111.500 Y108.088 E7.66527
G1 X112.412 Y109.000 E7.73181
G1 X113.087 Y109.000 E7.76663
G1 X111.500 Y107.413 E7.88242
G1 X111.500 Y106.738 E7.91725
G1 X113.762 Y109.000 E8.08229
G1 X114.437 Y109.000 E8.11711
G1 X111.500 Y106.063 E8.33141
G1 X111.500 Y105.388 E8.36623
G1 X115.112 Y109.000 E8.62977
G1 X115.787 Y109.000 E8.66460
G1 X111.500 Y104.713 E8.97739
G1 X111.500 Y104.038 E9.01222
G1 X116.462 Y109.000 E9.37426
G1 X117.137 Y109.000 E9.40909
G1 X111.500 Y103.363 E9.82038
G1 X111.500 Y102.688 E9.85521
G1 X117.812 Y109.000 E10.31575
G1 X118.487 Y109.000 E10.35058
G1 X111.500 Y102.013 E10.86038
G1 X111.500 Y101.338 E10.89520
G1 X119.162 Y109.000 E11.45425
G1 X119.500 Y108.662 E11.47887
G1 X111.838 Y101.000 E12.03792
G1 X112.513 Y101.000 E12.07275
G1 X119.500 Y107.987 E12.58255
G1 X119.500 Y107.312 E12.61737
G1 X113.188 Y101.000 E13.07792
G1 X113.863 Y101.000 E13.11275
G1 X119.500 Y106.637 E13.52404
G1 X119.500 Y105.962 E13.55887
G1 X114.538 Y101.000 E13.92091
G1 X115.213 Y101.000 E13.95574
G1 X119.500 Y105.287 E14.26853
G1 X119.500 Y104.612 E14.30336
G1 X115.888 Y101.000 E14.56690
G1 X116.563 Y101.000 E14.60173
G1 X119.500 Y103.937 E14.81602
G1 X119.500 Y103.262 E14.85085
G1 X117.238 Y101.000 E15.01589
G1 X117.913 Y101.000 E15.05071
G1 X119.500 Y102.587 E15.16650
G1 X119.500 Y101.912 E15.20133
G1 X118.588 Y101.000 E15.26787
G1 X119.263 Y101.000 E15.30269
G1 X119.500 Y101.237 E15.31998
G1 E11.31998 F780.00000
G92 E0
G1 Z0.260 F4200.000
M106 S255
G1 Z0.460 F4200.000
T1
G92 E0
G1 X108.807 Y109.307 F4200.000
G1 E4.00000 F780.00000
G1 X100.193 Y109.307 E4.45007 F2310.000
G1 X100.193 Y100.693 E4.90014
G1 X108.807 Y100.693 E5.35021
G1 X108.807 Y109.247 E5.79714
G1 X109.300 Y109.800 F4200.000
G1 X99.700 Y109.800 E6.08218 F2310.000
G1 X99.700 Y100.200 E6.36721
G1 X109.300 Y100.200 E6.65225
G1 X109.300 Y109.740 E6.93551
G1 X108.954 Y109.600 F4200.000
G1 X108.120 Y108.927 F4200.000
G1 X108.427 Y108.620 E6.95955 F3000.000
G1 X108.427 Y107.677 E7.01187
G1 X107.177 Y108.927 E7.10991
G1 X106.233 Y108.927 E7.16223
G1 X108.427 Y106.733 E7.33425
G1 X108.427 Y105.790 E7.38657
G1 X105.290 Y108.927 E7.63259
G1 X104.347 Y108.927 E7.68491
G1 X108.427 Y104.847 E8.00492
G1 X108.427 Y103.903 E8.05724
G1 X103.403 Y108.927 E8.45124
G1 X102.460 Y108.927 E8.50356
G1 X108.427 Y102.960 E8.97155
G1 X108.427 Y102.017 E9.02387
G1 X101.517 Y108.927 E9.56585
G1 X100.593 Y108.907 E9.61707
G1 X108.407 Y101.093 E10.22990
G1 X107.483 Y101.073 E10.28112
G1 X100.573 Y107.983 E10.82310
G1 X100.573 Y107.040 E10.87542
G1 X106.540 Y101.073 E11.34341
G1 X105.597 Y101.073 E11.39573
G1 X100.573 Y106.097 E11.78973
G1 X100.573 Y105.153 E11.84204
G1 X104.653 Y101.073 E12.16205
G1 X103.710 Y101.073 E12.21437
G1 X100.573 Y104.210 E12.46039
G1 X100.573 Y103.267 E12.51271
G1 X102.767 Y101.073 E12.68473
G1 X101.823 Y101.073 E12.73705
G1 X100.573 Y102.323 E12.83509
G1 X100.573 Y101.380 E12.88741
G1 X100.880 Y101.073 E12.91145
G1 E8.91145 F780.00000
G92 E0
G1 Z0.460 F4200.000
T0
G92 E0
G1 X111.193 Y109.307 F4200.000
G1 E4.00000 F780.00000
G1 X111.193 Y100.693 E4.45007 F2310.000
G1 X119.807 Y100.693 E4.90014
G1 X119.807 Y109.307 E5.35021
G1 X111.253 Y109.307 E5.79714
G1 X110.700 Y109.800 F4200.000
G1 X110.700 Y100.200 E6.08218 F2310.000
G1 X120.300 Y100.200 E6.36721
G1 X120.300 Y109.800 E6.65225
G1 X110.760 Y109.800 E6.93551
G1 X110.900 Y109.454 F4200.000
G1 E2.93551 F780.00000
G92 E0
G1 X119.120 Y108.927 F4200.000
G1 E4.00000 F780.00000
G1 X119.427 Y108.620 E4.02405 F3000.000
G1 X119.427 Y107.677 E4.07637
G1 X118.177 Y108.927 E4.17440
G1 X117.233 Y108.927 E4.22672
G1 X119.427 Y106.733 E4.39875
G1 X119.427 Y105.790 E4.45107
G1 X116.290 Y108.927 E4.69709
G1 X115.347 Y108.927 E4.74941
G1 X119.427 Y104.847 E5.06941
G1 X119.427 Y103.903 E5.12173
G1 X114.403 Y108.927 E5.51573
G1 X113.460 Y108.927 E5.56805
G1 X119.427 Y102.960 E6.03604
G1 X119.427 Y102.017 E6.08836
G1 X112.517 Y108.927 E6.63034
G1 X111.593 Y108.907 E6.68156
G1 X119.407 Y101.093 E7.29439
G1 X118.483 Y101.073 E7.34562
G1 X111.573 Y107.983 E7.88760
G1 X111.573 Y107.040 E7.93991
G1 X117.540 Y101.073 E8.40790
G1 X116.597 Y101.073 E8.46022
G1 X111.573 Y106.097 E8.85422
G1 X111.573 Y105.153 E8.90654
G1 X115.653 Y101.073 E9.22655
G1 X114.710 Y101.073 E9.27887
G1 X111.573 Y104.210 E9.52488
G1 X111.573 Y103.267 E9.57720
G1 X113.767 Y101.073 E9.74923
G1 X112.823 Y101.073 E9.80155
G1 X111.573 Y102.323 E9.89958
G1 X111.573 Y101.380 E9.95190
G1 X111.880 Y101.073 E9.97595
G1 E5.97595 F780.00000
G92 E0
G1 Z0.660 F4200.000
T1
G92 E0
G1 X108.807 Y109.307 F4200.000
G1 E4.00000 F780.00000
G1 X100.193 Y109.307 E4.45007 F2310.000
G1 X100.193 Y100.693 E4.90014
G1 X108.807 Y100.693 E5.35021
G1 X108.807 Y109.247 E5.79714
G1 X109.300 Y109.800 F4200.000
G1 X99.700 Y109.800 E6.08218 F2310.000
G1 X99.700 Y100.200 E6.36721
G1 X109.300 Y100.200 E6.65225
G1 X109.300 Y109.740 E6.93551
G1 X108.954 Y109.600 F4200.000
G1 E2.93551 F780.00000
G92 E0
G1 X108.427 Y101.380 F4200.000
G1 E4.00000 F780.00000
G1 X108.120 Y101.073 E4.02405 F3000.000
G1 X107.177 Y101.073 E4.07637
G1 X108.427 Y102.323 E4.17440
G1 X108.427 Y103.267 E4.22672
G1 X106.233 Y101.073 E4.39875
G1 X105.290 Y101.073 E4.45107
G1 X108.427 Y104.210 E4.69709
G1 X108.427 Y105.153 E4.74941
G1 X104.347 Y101.073 E5.06941
G1 X103.403 Y101.073 E5.12173
G1 X108.427 Y106.097 E5.51573
G1 X108.427 Y107.040 E5.56805
G1 X102.460 Y101.073 E6.03604
G1 X101.517 Y101.073 E6.08836
G1 X108.427 Y107.983 E6.63034
G1 X108.407 Y108.907 E6.68156
G1 X100.593 Y101.093 E7.29439
G1 X100.573 Y102.017 E7.34562
G1 X107.483 Y108.927 E7.88760
G1 X106.540 Y108.927 E7.93991
G1 X100.573 Y102.960 E8.40790
G1 X100.573 Y103.903 E8.46022
G1 X105.597 Y108.927 E8.85422
G1 X104.653 Y108.927 E8.90654
G1 X100.573 Y104.847 E9.22655
G1 X100.573 Y105.790 E9.27887
G1 X103.710 Y108.927 E9.52488
G1 X102.767 Y108.927 E9.57720
G1 X100.573 Y106.733 E9.74923
G1 X100.573 Y107.677 E9.80155
G1 X101.823 Y108.927 E9.89958
G1 X100.880 Y108.927 E9.95190
G1 X100.573 Y108.620 E9.97595
G1 E5.97595 F780.00000
G92 E0
G1 Z0.660 F4200.000
T0
G92 E0
G1 X111.193 Y109.307 F4200.000
G1 E4.00000 F780.00000
G1 X111.193 Y100.693 E4.45007 F2310.000
G1 X119.807 Y100.693 E4.90014
G1 X119.807 Y109.307 E5.35021
G1 X111.253 Y109.307 E5.79714
G1 X110.700 Y109.800 F4200.000
G1 X110.700 Y100.200 E6.08218 F2310.000
G1 X120.300 Y100.200 E6.36721
G1 X120.300 Y109.800 E6.65225
G1 X110.760 Y109.800 E6.93551
G1 X110.900 Y109.454 F4200.000
G1 X111.573 Y108.620 F4200.000
G1 X111.880 Y108.927 E6.95955 F3000.000
G1 X112.823 Y108.927 E7.01187
G1 X111.573 Y107.677 E7.10991
G1 X111.573 Y106.733 E7.16222
G1 X113.767 Y108.927 E7.33425
G1 X114.710 Y108.927 E7.38657
G1 X111.573 Y105.790 E7.63259
G1 X111.573 Y104.847 E7.68491
G1 X115.653 Y108.927 E8.00491
G1 X116.597 Y108.927 E8.05723
G1 X111.573 Y103.903 E8.45123
G1 X111.573 Y102.960 E8.50355
G1 X117.540 Y108.927 E8.97154
G1 X118.483 Y108.927 E9.02386
G1 X111.573 Y102.017 E9.56584
G1 X111.593 Y101.093 E9.61706
G1 X119.407 Y108.907 E10.22989
G1 X119.427 Y107.983 E10.28111
G1 X112.517 Y101.073 E10.82309
G1 X113.460 Y101.073 E10.87541
G1 X119.427 Y107.040 E11.34340
G1 X119.427 Y106.097 E11.39572
G1 X114.403 Y101.073 E11.78972
G1 X115.347 Y101.073 E11.84204
G1 X119.427 Y105.153 E12.16205
G1 X119.427 Y104.210 E12.21437
G1 X116.290 Y101.073 E12.46038
G1 X117.233 Y101.073 E12.51270
G1 X119.427 Y103.267 E12.68473
G1 X119.427 Y102.323 E12.73705
G1 X118.177 Y101.073 E12.83509
G1 X119.120 Y101.073 E12.88741
G1 X119.427 Y101.380 E12.91145
G1 E8.91145 F780.00000
G92 E0
G1 Z0.860 F4200.000
T1
G92 E0
G1 X108.807 Y109.307 F4200.000
G1 E4.00000 F780.00000
G1 X100.193 Y109.307 E4.45007 F2310.000
G1 X100.193 Y100.693 E4.90014
G1 X108.807 Y100.693 E5.35021
G1 X108.807 Y109.247 E5.79714
G1 X109.300 Y109.800 F4200.000
G1 X99.700 Y109.800 E6.08218 F2310.000
G1 X99.700 Y100.200 E6.36721
G1 X109.300 Y100.200 E6.65225
G1 X109.300 Y109.740 E6.93551
G1 X108.954 Y109.600 F4200.000
G1 X108.120 Y108.927 F4200.000
G1 X108.427 Y108.620 E6.95955 F3000.000
G1 X108.427 Y107.677 E7.01187
G1 X107.177 Y108.927 E7.10991
G1 X106.233 Y108.927 E7.16223
G1 X108.427 Y106.733 E7.33425
G1 X108.427 Y105.790 E7.38657
G1 X105.290 Y108.927 E7.63259
G1 X104.347 Y108.927 E7.68491
G1 X108.427 Y104.847 E8.00491
G1 X108.427 Y103.903 E8.05723
G1 X103.403 Y108.927 E8.45123
G1 X102.460 Y108.927 E8.50355
G1 X108.427 Y102.960 E8.97154
G1 X108.427 Y102.017 E9.02385
G1 X101.517 Y108.927 E9.56583
G1 X100.593 Y108.907 E9.61705
G1 X108.407 Y101.093 E10.22988
G1 X107.483 Y101.073 E10.28110
G1 X100.573 Y107.983 E10.82308
G1 X100.573 Y107.040 E10.87540
G1 X106.540 Y101.073 E11.34339
G1 X105.597 Y101.073 E11.39570
G1 X100.573 Y106.097 E11.78970
G1 X100.573 Y105.153 E11.84202
G1 X104.653 Y101.073 E12.16202
G1 X103.710 Y101.073 E12.21434
G1 X100.573 Y104.210 E12.46036
G1 X100.573 Y103.267 E12.51268
G1 X102.767 Y101.073 E12.68470
G1 X101.823 Y101.073 E12.73702
G1 X100.573 Y102.323 E12.83506
G1 X100.573 Y101.380 E12.88738
G1 X100.880 Y101.073 E12.91142
G1 E8.91142 F780.00000
G92 E0
G1 Z0.860 F4200.000
T0
G92 E0
G1 X111.193 Y109.307 F4200.000
G1 E4.00000 F780.00000
G1 X111.193 Y100.693 E4.45007 F2310.000
G1 X119.807 Y100.693 E4.90014
G1 X119.807 Y109.307 E5.35021
G1 X111.253 Y109.307 E5.79714
G1 X110.700 Y109.800 F4200.000
G1 X110.700 Y100.200 E6.08218 F2310.000
G1 X120.300 Y100.200 E6.36721
G1 X120.300 Y109.800 E6.65225
G1 X110.760 Y109.800 E6.93551
G1 X110.900 Y109.454 F4200.000
G1 E2.93551 F780.00000
G92 E0
G1 X119.120 Y108.927 F4200.000
G1 E4.00000 F780.00000
G1 X119.427 Y108.620 E4.02405 F3000.000
G1 X119.427 Y107.677 E4.07637
G1 X118.177 Y108.927 E4.17440
G1 X117.233 Y108.927 E4.22672
G1 X119.427 Y106.733 E4.39875
G1 X119.427 Y105.790 E4.45107
G1 X116.290 Y108.927 E4.69708
G1 X115.347 Y108.927 E4.74940
G1 X119.427 Y104.847 E5.06941
G1 X119.427 Y103.903 E5.12173
G1 X114.403 Y108.927 E5.51572
G1 X113.460 Y108.927 E5.56804
G1 X119.427 Y102.960 E6.03603
G1 X119.427 Y102.017 E6.08835
G1 X112.517 Y108.927 E6.63033
G1 X111.593 Y108.907 E6.68155
G1 X119.407 Y101.093 E7.29438
G1 X118.483 Y101.073 E7.34560
G1 X111.573 Y107.983 E7.88758
G1 X111.573 Y107.040 E7.93989
G1 X117.540 Y101.073 E8.40788
G1 X116.597 Y101.073 E8.46020
G1 X111.573 Y106.097 E8.85419
G1 X111.573 Y105.153 E8.90651
G1 X115.653 Y101.073 E9.22652
G1 X114.710 Y101.073 E9.27884
G1 X111.573 Y104.210 E9.52485
G1 X111.573 Y103.267 E9.57717
G1 X113.767 Y101.073 E9.74920
G1 X112.823 Y101.073 E9.80152
G1 X111.573 Y102.323 E9.89955
G1 X111.573 Y101.380 E9.95187
