; generated by Slic3r 1.2.5 on 2015-01-23 at 12:32:32

; external perimeters extrusion width = 0.40mm
; perimeters extrusion width = 0.67mm
; infill extrusion width = 0.67mm
; solid infill extrusion width = 0.67mm
; top infill extrusion width = 0.67mm

; external perimeters extrusion width = 0.40mm
; perimeters extrusion width = 0.67mm
; infill extrusion width = 0.67mm
; solid infill extrusion width = 0.67mm
; top infill extrusion width = 0.67mm

; external perimeters extrusion width = 0.40mm
; perimeters extrusion width = 0.67mm
; infill extrusion width = 0.67mm
; solid infill extrusion width = 0.67mm
; top infill extrusion width = 0.67mm

; external perimeters extrusion width = 0.40mm
; perimeters extrusion width = 0.67mm
; infill extrusion width = 0.67mm
; solid infill extrusion width = 0.67mm
; top infill extrusion width = 0.67mm

; external perimeters extrusion width = 0.40mm
; perimeters extrusion width = 0.67mm
; infill extrusion width = 0.67mm
; solid infill extrusion width = 0.67mm
; top infill extrusion width = 0.67mm

; external perimeters extrusion width = 0.40mm
; perimeters extrusion width = 0.67mm
; infill extrusion width = 0.67mm
; solid infill extrusion width = 0.67mm
; top infill extrusion width = 0.67mm

; external perimeters extrusion width = 0.40mm
; perimeters extrusion width = 0.67mm
; infill extrusion width = 0.67mm
; solid infill extrusion width = 0.67mm
; top infill extrusion width = 0.67mm

; external perimeters extrusion width = 0.40mm
; perimeters extrusion width = 0.67mm
; infill extrusion width = 0.67mm
; solid infill extrusion width = 0.67mm
; top infill extrusion width = 0.67mm

; external perimeters extrusion width = 0.40mm
; perimeters extrusion width = 0.67mm
; infill extrusion width = 0.67mm
; solid infill extrusion width = 0.67mm
; top infill extrusion width = 0.67mm

; external perimeters extrusion width = 0.40mm
; perimeters extrusion width = 0.67mm
; infill extrusion width = 0.67mm
; solid infill extrusion width = 0.67mm
; top infill extrusion width = 0.67mm

; external perimeters extrusion width = 0.40mm
; perimeters extrusion width = 0.67mm
; infill extrusion width = 0.67mm
; solid infill extrusion width = 0.67mm
; top infill extrusion width = 0.67mm

M104 S215 T0 ; set temperature
M104 S215 T1 ; set temperature
M104 S215 T2 ; set temperature
M104 S215 T3 ; set temperature
M104 S215 T4 ; set temperature
M104 S215 T5 ; set temperature
M104 S215 T6 ; set temperature
M104 S215 T7 ; set temperature
M104 S215 T8 ; set temperature
M104 S215 T9 ; set temperature
M104 S215 T10 ; set temperature
G28 ; home all axes
M106 ; Fan on
M109 S215 T0 ; wait for temperature to be reached
M109 S215 T1 ; wait for temperature to be reached
M109 S215 T2 ; wait for temperature to be reached
M109 S215 T3 ; wait for temperature to be reached
M109 S215 T4 ; wait for temperature to be reached
M109 S215 T5 ; wait for temperature to be reached
M109 S215 T6 ; wait for temperature to be reached
M109 S215 T7 ; wait for temperature to be reached
M109 S215 T8 ; wait for temperature to be reached
M109 S215 T9 ; wait for temperature to be reached
M109 S215 T10 ; wait for temperature to be reached
G21 ; set units to millimeters
G90 ; use absolute coordinates
M82 ; use absolute distances for extrusion
G92 E0
G93 R0.0 
G92 E0
G1 E-4.00000 F780.00000
G92 E0
G1 Z0.260 F4200.000
G1 X50.363 Y50.498 F4200.000
G1 E4.00000 F780.00000
G1 X52.738 Y48.213 E4.16540 F1200.000
G1 X55.512 Y45.795 E4.35006
G1 X58.408 Y43.524 E4.53470
G1 X61.418 Y41.407 E4.71935
G1 X64.533 Y39.449 E4.90401
G1 X67.746 Y37.655 E5.08866
G1 X71.048 Y36.030 E5.27333
G1 X71.797 Y35.713 E5.31413
G1 X78.253 Y33.397 E5.65826
G1 X81.723 Y32.320 E5.84059
G1 X85.289 Y31.411 E6.02524
G1 X88.897 Y30.688 E6.20991
G1 X92.538 Y30.153 E6.39457
G1 X96.202 Y29.808 E6.57920
G1 X99.879 Y29.653 E6.76388
G1 X103.558 Y29.690 E6.94850
G1 X107.613 Y29.952 E7.15240 F1200.000
G1 X110.887 Y30.335 E7.31782
G1 X111.863 Y30.517 E7.36763
G1 X115.868 Y31.545 E7.57510
G1 X119.410 Y32.544 E7.75975
G1 X122.534 Y33.593 E7.92515
G1 X125.961 Y34.936 E8.10982
G1 X129.658 Y36.622 E8.31370
G1 X132.582 Y38.144 E8.47910
G1 X135.759 Y40.001 E8.66377
G1 X139.149 Y42.241 E8.86765
G1 X142.105 Y44.433 E9.05230
G1 X144.653 Y46.526 E9.21774
G1 X145.362 Y47.191 E9.26657
G1 X149.795 Y51.939 E9.59248
G1 X151.987 Y54.401 E9.75790
G1 X154.296 Y57.266 E9.94255
G1 X156.669 Y60.564 E10.14643
G1 X158.652 Y63.664 E10.33108
G1 X160.290 Y66.525 E10.49649
G1 X161.976 Y69.840 E10.68313
G1 X166.248 Y78.407 E11.16346
G1 X166.771 Y79.788 E11.23757
G1 X167.555 Y82.706 E11.38919
G1 X168.283 Y86.000 E11.55846
G1 X168.903 Y89.673 E11.74537
G1 X169.297 Y93.023 E11.91464
G1 X169.515 Y96.037 E12.06626
G1 X169.606 Y99.409 E12.23552
G1 X169.536 Y102.782 E12.40479
G1 X169.306 Y106.147 E12.57406
G1 X168.919 Y109.482 E12.74255
G1 X168.302 Y113.172 E12.93024
G1 X167.603 Y116.373 E13.09465
G1 X166.834 Y119.410 E13.25186
G1 X166.706 Y119.857 E13.27518
G1 X165.698 Y122.995 E13.44058
G1 X164.402 Y126.439 E13.62523
G1 X162.765 Y130.158 E13.82913
G1 X161.282 Y133.102 E13.99453
G1 X159.467 Y136.304 E14.17918
G1 X157.273 Y139.724 E14.38308
G1 X155.352 Y142.402 E14.54849
G1 X153.062 Y145.283 E14.73314
G1 X150.364 Y148.322 E14.93704
G1 X148.051 Y150.670 E15.10245
G1 X145.342 Y153.161 E15.28709
G1 X144.436 Y153.868 E15.34479
G1 X136.092 Y159.396 E15.84702
G1 X132.928 Y161.275 E16.03168
G1 X129.326 Y163.156 E16.23557
G1 X126.328 Y164.529 E16.40099
G1 X122.912 Y165.894 E16.58562
G1 X119.095 Y167.184 E16.78776
G1 X111.281 Y169.417 E17.19554
G1 X110.120 Y169.650 E17.25501
G1 X106.846 Y170.037 E17.42041
G1 X103.175 Y170.290 E17.60506
G1 X99.112 Y170.347 E17.80896
G1 X95.435 Y170.198 E17.99362
G1 X92.151 Y169.902 E18.15904
G1 X88.508 Y169.392 E18.34367
G1 X84.894 Y168.694 E18.52832
G1 X80.953 Y167.706 E18.73222
G1 X77.652 Y166.692 E18.90549
G1 X72.776 Y165.083 E19.16311
G1 X71.856 Y164.709 E19.21298
G1 X68.892 Y163.266 E19.37838
G1 X65.336 Y161.300 E19.58228
G1 X62.538 Y159.557 E19.74770
G1 X59.514 Y157.460 E19.93233
G1 X56.306 Y154.966 E20.13623
G1 X53.529 Y152.552 E20.32088
G1 X51.150 Y150.270 E20.48629
G1 X48.623 Y147.595 E20.67094
G1 X46.128 Y144.658 E20.86430
G1 X42.154 Y139.732 E21.18189
G1 X41.593 Y138.932 E21.23091
G1 X39.880 Y136.116 E21.39631
G1 X38.124 Y132.882 E21.58097
G1 X36.383 Y129.210 E21.78486
G1 X34.991 Y125.804 E21.96951
G1 X33.895 Y122.695 E22.13493
G1 X32.745 Y118.798 E22.33882
G1 X31.978 Y115.592 E22.50422
G1 X31.298 Y111.976 E22.68887
G1 X30.766 Y107.947 E22.89277
G1 X30.505 Y104.661 E23.05819
G1 X30.395 Y100.983 E23.24283
G1 X30.494 Y97.583 E23.41348
G1 X30.769 Y93.967 E23.59548
G1 X31.236 Y90.318 E23.78007
G1 X31.891 Y86.698 E23.96467
G1 X32.734 Y83.116 E24.14928
G1 X33.760 Y79.584 E24.33386
G1 X35.106 Y75.751 E24.53770
G1 X36.411 Y72.575 E24.71001
G1 X40.479 Y63.168 E25.22425
G1 X41.150 Y61.947 E25.29420
G1 X43.003 Y59.220 E25.45962
G1 X45.219 Y56.283 E25.64425
G1 X47.585 Y53.464 E25.82890
G1 X50.321 Y50.541 E26.02979
G1 X50.651 Y50.867 F4200.000
G1 X53.060 Y48.547 E26.19760 F1200.000
G1 X55.816 Y46.146 E26.38105
G1 X58.693 Y43.890 E26.56448
G1 X61.684 Y41.787 E26.74793
G1 X64.779 Y39.842 E26.93137
G1 X67.972 Y38.061 E27.11481
G1 X71.252 Y36.447 E27.29827
G1 X71.954 Y36.150 E27.33651
G1 X78.409 Y33.834 E27.68064
G1 X81.860 Y32.764 E27.86191
G1 X85.402 Y31.861 E28.04535
G1 X88.987 Y31.143 E28.22881
G1 X92.605 Y30.612 E28.41226
G1 X96.244 Y30.270 E28.59568
G1 X99.897 Y30.117 E28.77916
G1 X103.552 Y30.154 E28.96257
G1 X107.559 Y30.413 E29.16405 F1200.000
G1 X110.833 Y30.796 E29.32946
G1 X111.748 Y30.966 E29.37615
G1 X115.743 Y31.992 E29.58312
G1 X119.262 Y32.984 E29.76656
G1 X122.387 Y34.033 E29.93197
G1 X125.791 Y35.367 E30.11543
G1 X129.444 Y37.034 E30.31689
G1 X132.368 Y38.555 E30.48229
G1 X135.523 Y40.401 E30.66575
G1 X138.874 Y42.614 E30.86722
G1 X141.810 Y44.792 E31.05066
G1 X144.358 Y46.884 E31.21609
G1 X145.023 Y47.508 E31.26185
G1 X149.448 Y52.247 E31.58721
G1 X151.640 Y54.709 E31.75262
G1 X153.934 Y57.556 E31.93606
G1 X156.279 Y60.815 E32.13753
G1 X158.063 Y63.587 E32.30294
G1 X159.887 Y66.756 E32.48638
G1 X161.561 Y70.048 E32.67169
G1 X165.832 Y78.614 E33.15201
G1 X166.323 Y79.908 E33.22147
G1 X167.107 Y82.826 E33.37309
G1 X167.829 Y86.099 E33.54125
G1 X168.442 Y89.728 E33.72595
G1 X168.803 Y92.728 E33.87757
G1 X169.052 Y96.070 E34.04573
G1 X169.142 Y99.420 E34.21389
G1 X169.072 Y102.771 E34.38205
G1 X168.843 Y106.114 E34.55021
G1 X168.458 Y109.428 E34.71759
G1 X167.848 Y113.073 E34.90306
G1 X167.153 Y116.259 E35.06667
G1 X166.264 Y119.715 E35.24572
G1 X165.256 Y122.853 E35.41113
G1 X163.968 Y126.275 E35.59457
G1 X162.350 Y129.950 E35.79605
G1 X160.868 Y132.894 E35.96145
G1 X159.064 Y136.074 E36.14489
G1 X156.896 Y139.453 E36.34638
G1 X154.975 Y142.132 E36.51179
G1 X152.700 Y144.993 E36.69522
G1 X150.034 Y147.996 E36.89670
G1 X147.720 Y150.344 E37.06211
G1 X145.029 Y152.818 E37.24555
G1 X144.179 Y153.481 E37.29963
G1 X135.836 Y159.009 E37.80185
G1 X132.692 Y160.875 E37.98530
G1 X129.133 Y162.734 E38.18678
G1 X126.135 Y164.106 E38.35220
G1 X122.741 Y165.462 E38.53562
G1 X118.968 Y166.737 E38.73546
G1 X111.154 Y168.970 E39.14324
G1 X110.065 Y169.189 E39.19897
G1 X106.792 Y169.576 E39.36437
G1 X103.144 Y169.827 E39.54781
G1 X99.129 Y169.883 E39.74930
G1 X95.835 Y169.758 E39.91470
G1 X92.193 Y169.440 E40.09816
G1 X88.573 Y168.932 E40.28158
G1 X84.984 Y168.238 E40.46503
G1 X81.089 Y167.262 E40.66651
G1 X77.797 Y166.251 E40.83929
G1 X72.922 Y164.643 E41.09691
G1 X72.059 Y164.292 E41.14364
G1 X69.095 Y162.849 E41.30904
G1 X65.582 Y160.906 E41.51052
G1 X62.783 Y159.163 E41.67594
G1 X59.780 Y157.079 E41.85937
G1 X56.610 Y154.615 E42.06085
G1 X53.850 Y152.217 E42.24429
G1 X51.471 Y149.935 E42.40970
G1 X48.962 Y147.277 E42.59314
G1 X46.489 Y144.367 E42.78474
G1 X42.516 Y139.440 E43.10233
G1 X41.989 Y138.691 E43.14828
G1 X40.097 Y135.563 E43.33172
G1 X38.532 Y132.662 E43.49713
G1 X36.813 Y129.034 E43.69860
G1 X35.557 Y125.986 E43.86400
G1 X34.333 Y122.541 E44.04746
G1 X33.197 Y118.690 E44.24893
G1 X32.429 Y115.484 E44.41433
G1 X31.754 Y111.891 E44.59777
G1 X31.229 Y107.910 E44.79926
G1 X30.968 Y104.624 E44.96468
G1 X30.859 Y100.970 E45.14811
G1 X30.958 Y97.599 E45.31735
G1 X31.232 Y94.003 E45.49831
G1 X31.696 Y90.378 E45.68169
G1 X32.348 Y86.782 E45.86508
G1 X33.185 Y83.224 E46.04848
G1 X34.206 Y79.715 E46.23185
G1 X35.535 Y75.927 E46.43327
G1 X36.837 Y72.759 E46.60515
G1 X40.905 Y63.353 E47.11939
G1 X41.534 Y62.208 E47.18494
G1 X43.387 Y59.481 E47.35036
G1 X45.589 Y56.563 E47.53379
G1 X47.939 Y53.763 E47.71723
G1 X50.609 Y50.910 E47.91330
G1 X50.939 Y51.236 F4200.000
G1 X53.382 Y48.882 E48.08351 F1200.000
G1 X56.120 Y46.496 E48.26575
G1 X58.979 Y44.256 E48.44798
G1 X61.950 Y42.168 E48.63021
G1 X65.025 Y40.236 E48.81245
G1 X68.197 Y38.467 E48.99468
G1 X71.456 Y36.864 E49.17693
G1 X72.111 Y36.587 E49.21260
G1 X78.566 Y34.271 E49.55674
G1 X81.996 Y33.207 E49.73694
G1 X85.516 Y32.311 E49.91918
G1 X89.077 Y31.599 E50.10142
G1 X92.671 Y31.072 E50.28367
G1 X96.286 Y30.733 E50.46588
G1 X99.915 Y30.581 E50.64814
G1 X103.546 Y30.618 E50.83035
G1 X107.505 Y30.874 E51.02941 F1200.000
G1 X110.779 Y31.257 E51.19482
G1 X111.633 Y31.416 E51.23839
G1 X115.618 Y32.439 E51.44486
G1 X119.114 Y33.424 E51.62709
G1 X122.239 Y34.473 E51.79250
G1 X125.620 Y35.799 E51.97474
G1 X129.229 Y37.445 E52.17379
G1 X132.153 Y38.967 E52.33919
G1 X135.288 Y40.801 E52.52144
G1 X138.598 Y42.988 E52.72049
G1 X141.515 Y45.151 E52.90272
G1 X144.063 Y47.243 E53.06815
G1 X144.684 Y47.825 E53.11085
G1 X149.102 Y52.556 E53.43565
G1 X151.294 Y55.018 E53.60106
G1 X153.572 Y57.847 E53.78330
G1 X155.888 Y61.067 E53.98235
G1 X157.672 Y63.839 E54.14775
G1 X159.484 Y66.986 E54.32999
G1 X161.145 Y70.255 E54.51396
G1 X165.417 Y78.821 E54.99429
G1 X165.875 Y80.029 E55.05909
G1 X166.659 Y82.947 E55.21071
G1 X167.376 Y86.198 E55.37776
G1 X167.981 Y89.784 E55.56024
G1 X168.371 Y93.090 E55.72730
G1 X168.589 Y96.104 E55.87892
G1 X168.678 Y99.432 E56.04597
G1 X168.608 Y102.760 E56.21302
G1 X168.380 Y106.082 E56.38007
G1 X167.997 Y109.373 E56.54634
G1 X167.394 Y112.975 E56.72960
G1 X166.703 Y116.145 E56.89240
G1 X165.822 Y119.573 E57.07000
G1 X164.814 Y122.711 E57.23540
G1 X163.534 Y126.110 E57.41763
G1 X161.936 Y129.741 E57.61669
G1 X160.453 Y132.685 E57.78210
G1 X158.661 Y135.844 E57.96433
G1 X156.519 Y139.183 E58.16340
G1 X154.597 Y141.861 E58.32881
G1 X152.337 Y144.704 E58.51103
G1 X149.703 Y147.670 E58.71010
G1 X147.389 Y150.018 E58.87551
G1 X144.716 Y152.475 E59.05773
G1 X143.923 Y153.094 E59.10819
G1 X135.579 Y158.622 E59.61041
G1 X132.456 Y160.476 E59.79265
G1 X128.940 Y162.312 E59.99171
G1 X125.942 Y163.684 E60.15713
G1 X122.570 Y165.031 E60.33934
G1 X118.840 Y166.291 E60.53687
G1 X111.026 Y168.524 E60.94465
G1 X110.010 Y168.728 E60.99665
G1 X106.403 Y169.146 E61.17889
G1 X103.114 Y169.364 E61.34429
G1 X99.147 Y169.419 E61.54335
G1 X95.853 Y169.294 E61.70875
G1 X92.235 Y168.977 E61.89101
G1 X88.639 Y168.473 E62.07322
G1 X85.073 Y167.783 E62.25546
G1 X81.225 Y166.818 E62.45452
G1 X77.943 Y165.810 E62.62681
G1 X73.067 Y164.202 E62.88443
G1 X72.262 Y163.875 E62.92803
G1 X69.299 Y162.431 E63.09343
G1 X65.827 Y160.512 E63.29249
G1 X63.029 Y158.769 E63.45791
G1 X60.045 Y156.699 E63.64013
G1 X56.913 Y154.264 E63.83919
G1 X54.171 Y151.882 E64.02143
G1 X51.793 Y149.600 E64.18684
G1 X49.300 Y146.959 E64.36906
G1 X46.851 Y144.075 E64.55891
G1 X42.877 Y139.149 E64.87650
G1 X42.386 Y138.450 E64.91937
G1 X40.506 Y135.343 E65.10160
G1 X38.941 Y132.441 E65.26701
G1 X37.242 Y128.857 E65.46607
G1 X35.986 Y125.809 E65.63147
G1 X34.771 Y122.386 E65.81372
G1 X33.648 Y118.582 E66.01277
G1 X32.811 Y115.048 E66.19500
G1 X32.211 Y111.807 E66.36041
G1 X31.692 Y107.873 E66.55947
G1 X31.431 Y104.587 E66.72489
G1 X31.323 Y100.957 E66.90711
G1 X31.422 Y97.614 E67.07495
G1 X31.695 Y94.039 E67.25486
G1 X32.156 Y90.438 E67.43704
G1 X32.804 Y86.865 E67.61921
G1 X33.637 Y83.331 E67.80141
G1 X34.651 Y79.846 E67.98357
G1 X35.965 Y76.103 E68.18257
G1 X37.263 Y72.943 E68.35401
G1 X41.331 Y63.537 E68.86825
G1 X41.918 Y62.469 E68.92942
G1 X43.771 Y59.742 E69.09483
G1 X45.959 Y56.844 E69.27705
G1 X48.294 Y54.063 E69.45928
G1 X50.897 Y51.278 E69.65053
G1 E65.65053 F780.00000
G92 E0
G1 X49.655 Y69.192 F4200.000
G1 E4.00000 F780.00000
G1 X56.138 Y75.675 E4.46318 F1200.000
G1 X55.910 Y76.107 E4.48789
G1 X48.154 Y68.352 E5.04200
G1 X47.905 Y68.763 E5.06631
G1 X55.681 Y76.540 E5.62193
G1 X55.453 Y76.973 E5.64665
G1 X47.655 Y69.175 E6.20379
G1 X47.406 Y69.586 E6.22810
G1 X55.225 Y77.405 E6.78676
G1 X54.997 Y77.838 E6.81147
G1 X47.156 Y69.998 E7.37165
G1 X46.918 Y70.421 E7.39617
G1 X54.769 Y78.271 E7.95705
G1 X54.562 Y78.725 E7.98225
G1 X46.687 Y70.851 E8.54483
G1 X46.456 Y71.281 E8.56948
G1 X54.354 Y79.179 E9.13377
G1 X54.147 Y79.632 E9.15897
G1 X46.225 Y71.710 E9.72496
G1 X45.994 Y72.140 E9.74962
G1 X53.940 Y80.086 E10.31731
G1 X53.733 Y80.540 E10.34252
G1 X45.763 Y72.570 E10.91192
G1 X45.532 Y73.000 E10.93658
G1 X53.527 Y80.996 E11.50782
G1 X53.342 Y81.471 E11.53361
G1 X45.320 Y73.449 E12.10676
G1 X45.108 Y73.898 E12.13185
G1 X53.157 Y81.947 E12.70692
G1 X52.972 Y82.423 E12.73271
G1 X44.896 Y74.347 E13.30971
G1 X44.684 Y74.796 E13.33479
G1 X52.787 Y82.899 E13.91370
G1 X52.601 Y83.374 E13.93949
G1 X44.472 Y75.245 E14.52032
G1 X44.260 Y75.694 E14.54540
G1 X52.423 Y83.857 E15.12863
G1 X52.261 Y84.356 E15.15513
G1 X44.057 Y76.152 E15.74125
G1 X43.865 Y76.620 E15.76684
G1 X52.099 Y84.854 E16.35513
G1 X51.937 Y85.353 E16.38163
G1 X43.672 Y77.089 E16.97207
G1 X43.480 Y77.558 E16.99766
G1 X51.775 Y85.852 E17.59026
G1 X51.612 Y86.351 E17.61676
G1 X43.288 Y78.026 E18.21153
G1 X43.095 Y78.495 E18.23712
G1 X51.466 Y86.866 E18.83517
G1 X51.329 Y87.389 E18.86251
G1 X42.905 Y78.965 E19.46436
G1 X42.733 Y79.454 E19.49056
G1 X51.191 Y87.912 E20.09485
G1 X51.053 Y88.436 E20.12219
G1 X42.561 Y79.944 E20.72892
G1 X42.390 Y80.433 E20.75511
G1 X50.916 Y88.959 E21.36428
G1 X50.783 Y89.487 E21.39179
G1 X42.218 Y80.922 E22.00372
G1 X42.046 Y81.411 E22.02992
G1 X50.672 Y90.037 E22.64617
G1 X50.560 Y90.586 E22.67449
