; generated by Slic3r 1.2.5 on 2015-01-21 at 16:33:41

; external perimeters extrusion width = 0.40mm
; perimeters extrusion width = 0.67mm
; infill extrusion width = 0.67mm
; solid infill extrusion width = 0.67mm
; top infill extrusion width = 0.67mm

; external perimeters extrusion width = 0.40mm
; perimeters extrusion width = 0.67mm
; infill extrusion width = 0.67mm
; solid infill extrusion width = 0.67mm
; top infill extrusion width = 0.67mm

; external perimeters extrusion width = 0.40mm
; perimeters extrusion width = 0.67mm
; infill extrusion width = 0.67mm
; solid infill extrusion width = 0.67mm
; top infill extrusion width = 0.67mm

; external perimeters extrusion width = 0.40mm
; perimeters extrusion width = 0.67mm
; infill extrusion width = 0.67mm
; solid infill extrusion width = 0.67mm
; top infill extrusion width = 0.67mm

; external perimeters extrusion width = 0.40mm
; perimeters extrusion width = 0.67mm
; infill extrusion width = 0.67mm
; solid infill extrusion width = 0.67mm
; top infill extrusion width = 0.67mm

; external perimeters extrusion width = 0.40mm
; perimeters extrusion width = 0.67mm
; infill extrusion width = 0.67mm
; solid infill extrusion width = 0.67mm
; top infill extrusion width = 0.67mm

; external perimeters extrusion width = 0.40mm
; perimeters extrusion width = 0.67mm
; infill extrusion width = 0.67mm
; solid infill extrusion width = 0.67mm
; top infill extrusion width = 0.67mm

; external perimeters extrusion width = 0.40mm
; perimeters extrusion width = 0.67mm
; infill extrusion width = 0.67mm
; solid infill extrusion width = 0.67mm
; top infill extrusion width = 0.67mm

; external perimeters extrusion width = 0.40mm
; perimeters extrusion width = 0.67mm
; infill extrusion width = 0.67mm
; solid infill extrusion width = 0.67mm
; top infill extrusion width = 0.67mm

; external perimeters extrusion width = 0.40mm
; perimeters extrusion width = 0.67mm
; infill extrusion width = 0.67mm
; solid infill extrusion width = 0.67mm
; top infill extrusion width = 0.67mm

; external perimeters extrusion width = 0.40mm
; perimeters extrusion width = 0.67mm
; infill extrusion width = 0.67mm
; solid infill extrusion width = 0.67mm
; top infill extrusion width = 0.67mm

M104 S215 T0 ; set temperature
M104 S215 T1 ; set temperature
M104 S215 T2 ; set temperature
M104 S215 T3 ; set temperature
M104 S215 T4 ; set temperature
M104 S215 T5 ; set temperature
M104 S215 T6 ; set temperature
M104 S215 T7 ; set temperature
M104 S215 T8 ; set temperature
M104 S215 T9 ; set temperature
M104 S215 T10 ; set temperature
G28 ; home all axes
M106 ; Fan on
M109 S215 T0 ; wait for temperature to be reached
M109 S215 T1 ; wait for temperature to be reached
M109 S215 T2 ; wait for temperature to be reached
M109 S215 T3 ; wait for temperature to be reached
M109 S215 T4 ; wait for temperature to be reached
M109 S215 T5 ; wait for temperature to be reached
M109 S215 T6 ; wait for temperature to be reached
M109 S215 T7 ; wait for temperature to be reached
M109 S215 T8 ; wait for temperature to be reached
M109 S215 T9 ; wait for temperature to be reached
M109 S215 T10 ; wait for temperature to be reached
G21 ; set units to millimeters
G90 ; use absolute coordinates
M82 ; use absolute distances for extrusion
G92 E0
G93 R0.0 
G92 E0
G1 E-4.00000 F780.00000
G92 E0
G1 Z0.260 F4200.000
G1 X28.296 Y80.144 F4200.000
G1 E4.00000 F780.00000
G1 X30.150 Y79.907 E4.09377 F1200.000
G1 X169.850 Y79.907 E11.10367
G1 X172.241 Y80.305 E11.22529
G1 X174.375 Y81.454 E11.34690 F1200.000
G1 X176.022 Y83.231 E11.46852
G1 X177.006 Y85.446 E11.59013
G1 X177.243 Y87.300 E11.68390
G1 X177.243 Y112.700 E12.95843
G1 X176.845 Y115.091 E13.08005
G1 X175.696 Y117.225 E13.20166
G1 X173.919 Y118.872 E13.32327
G1 X171.704 Y119.856 E13.44489
G1 X169.850 Y120.093 E13.53866
G1 X30.150 Y120.093 E20.54856
G1 X27.759 Y119.695 E20.67018
G1 X25.625 Y118.546 E20.79179
G1 X23.978 Y116.769 E20.91341
G1 X22.994 Y114.554 E21.03502
G1 X22.757 Y112.700 E21.12879
G1 X22.757 Y87.300 E22.40332
G1 X23.155 Y84.909 E22.52494
G1 X24.304 Y82.775 E22.64655
G1 X26.081 Y81.128 E22.76816
G1 X28.241 Y80.168 E22.88677
G1 X28.428 Y80.635 F4200.000
G1 X28.706 Y80.524 E22.90180 F1200.000
G1 X30.150 Y80.372 E22.97465
G1 X169.850 Y80.372 E29.98456
G1 X172.162 Y80.769 E30.10227
G1 X174.209 Y81.915 E30.21997 F1200.000
G1 X175.756 Y83.678 E30.33768
G1 X176.626 Y85.856 E30.45539
G1 X176.778 Y87.300 E30.52824
G1 X176.778 Y112.700 E31.80277
G1 X176.381 Y115.012 E31.92048
G1 X175.235 Y117.059 E32.03818
G1 X173.472 Y118.606 E32.15589
G1 X171.294 Y119.476 E32.27360
G1 X169.850 Y119.628 E32.34645
G1 X30.150 Y119.628 E39.35636
G1 X27.838 Y119.231 E39.47407
G1 X25.791 Y118.085 E39.59177
G1 X24.244 Y116.322 E39.70948
G1 X23.374 Y114.144 E39.82719
G1 X23.222 Y112.700 E39.90004
G1 X23.222 Y87.300 E41.17457
G1 X23.619 Y84.988 E41.29228
G1 X24.765 Y82.941 E41.40999
G1 X26.528 Y81.394 E41.52769
G1 X28.372 Y80.657 E41.62736
G1 X28.531 Y81.261 F4200.000
G1 X30.150 Y80.836 E41.71136 F1200.000
G1 X169.850 Y80.836 E48.72126
G1 X172.080 Y81.233 E48.83493
G1 X174.037 Y82.375 E48.94860 F1200.000
G1 X175.479 Y84.121 E49.06226
G1 X176.314 Y87.300 E49.22717
G1 X176.314 Y112.700 E50.50170
G1 X175.917 Y114.930 E50.61537
G1 X174.775 Y116.887 E50.72903
G1 X173.029 Y118.329 E50.84270
G1 X169.850 Y119.164 E51.00761
G1 X30.150 Y119.164 E58.01751
G1 X27.920 Y118.767 E58.13118
G1 X25.963 Y117.625 E58.24485
G1 X24.521 Y115.879 E58.35851
G1 X23.686 Y112.700 E58.52342
G1 X23.686 Y87.300 E59.79795
G1 X24.083 Y85.070 E59.91162
G1 X25.225 Y83.113 E60.02528
G1 X26.971 Y81.671 E60.13895
G1 X28.473 Y81.277 E60.21685
G1 E56.21685 F780.00000
G92 E0
G1 X41.809 Y88.381 F4200.000
G1 E4.00000 F780.00000
G1 X41.769 Y88.341 E4.00287 F1200.000
G1 X41.105 Y88.341 E4.03656
G1 X41.809 Y89.045 E4.08707
G1 X41.809 Y89.708 E4.12075
G1 X40.442 Y88.341 E4.21890
G1 X39.778 Y88.341 E4.25259
G1 X41.809 Y90.372 E4.39838
G1 X41.809 Y91.036 E4.43206
G1 X39.114 Y88.341 E4.62549
G1 X38.450 Y88.341 E4.65918
G1 X41.809 Y91.700 E4.90025
G1 X41.809 Y92.364 E4.93393
G1 X37.786 Y88.341 E5.22264
G1 X37.122 Y88.341 E5.25633
G1 X41.809 Y93.028 E5.59267
G1 X41.809 Y93.692 E5.62636
G1 X36.458 Y88.341 E6.01035
G1 X35.794 Y88.341 E6.04403
G1 X41.809 Y94.356 E6.47566
G1 X41.809 Y95.019 E6.50934
G1 X35.131 Y88.341 E6.98861
G1 X34.467 Y88.341 E7.02229
G1 X41.809 Y95.683 E7.54920
G1 X41.809 Y96.347 E7.58289
G1 X33.803 Y88.341 E8.15743
G1 X33.139 Y88.341 E8.19112
G1 X41.809 Y97.011 E8.81330
G1 X41.809 Y97.675 E8.84699
G1 X32.475 Y88.341 E9.51681
G1 X31.811 Y88.341 E9.55050
G1 X41.809 Y98.339 E10.26796
G1 X41.809 Y99.003 E10.30164
G1 X31.191 Y88.384 E11.06364
G1 X31.191 Y89.048 E11.09732
G1 X41.809 Y99.666 E11.85932
G1 X41.809 Y100.330 E11.89301
G1 X31.191 Y89.712 E12.65500
G1 X31.191 Y90.376 E12.68869
G1 X41.809 Y100.994 E13.45068
G1 X41.809 Y101.658 E13.48437
G1 X31.191 Y91.039 E14.24636
G1 X31.191 Y91.703 E14.28005
G1 X41.809 Y102.322 E15.04204
G1 X41.809 Y102.986 E15.07573
G1 X31.191 Y92.367 E15.83772
G1 X31.191 Y93.031 E15.87141
G1 X41.809 Y103.650 E16.63340
G1 X41.809 Y104.313 E16.66709
G1 X31.191 Y93.695 E17.42909
G1 X31.191 Y94.359 E17.46277
G1 X41.809 Y104.977 E18.22477
G1 X41.809 Y105.641 E18.25845
G1 X31.191 Y95.023 E19.02045
G1 X31.191 Y95.687 E19.05413
G1 X41.809 Y106.305 E19.81613
G1 X41.809 Y106.969 E19.84981
G1 X31.191 Y96.350 E20.61181
G1 X31.191 Y97.014 E20.64550
G1 X41.809 Y107.633 E21.40749
G1 X41.809 Y108.297 E21.44118
G1 X31.191 Y97.678 E22.20317
G1 X31.191 Y98.342 E22.23686
G1 X41.809 Y108.961 E22.99885
G1 X41.809 Y109.624 E23.03254
G1 X31.191 Y99.006 E23.79453
G1 X31.191 Y99.670 E23.82822
G1 X41.809 Y110.288 E24.59021
G1 X41.809 Y110.952 E24.62390
G1 X31.191 Y100.334 E25.38589
G1 X31.191 Y100.997 E25.41958
G1 X41.809 Y111.616 E26.18158
G1 X41.189 Y111.659 E26.21314
G1 X31.191 Y101.661 E26.93060
G1 X31.191 Y102.325 E26.96429
G1 X40.525 Y111.659 E27.63411
G1 X39.861 Y111.659 E27.66780
G1 X31.191 Y102.989 E28.28998
G1 X31.191 Y103.653 E28.32366
G1 X39.197 Y111.659 E28.89820
G1 X38.533 Y111.659 E28.93189
G1 X31.191 Y104.317 E29.45879
G1 X31.191 Y104.981 E29.49248
G1 X37.869 Y111.659 E29.97174
G1 X37.205 Y111.659 E30.00543
G1 X31.191 Y105.645 E30.43705
G1 X31.191 Y106.308 E30.47074
G1 X36.542 Y111.659 E30.85472
G1 X35.878 Y111.659 E30.88841
G1 X31.191 Y106.972 E31.22475
G1 X31.191 Y107.636 E31.25844
G1 X35.214 Y111.659 E31.54714
G1 X34.550 Y111.659 E31.58083
G1 X31.191 Y108.300 E31.82189
G1 X31.191 Y108.964 E31.85558
G1 X33.886 Y111.659 E32.04900
G1 X33.222 Y111.659 E32.08269
G1 X31.191 Y109.628 E32.22848
G1 X31.191 Y110.292 E32.26216
G1 X32.558 Y111.659 E32.36031
G1 X31.895 Y111.659 E32.39399
G1 X31.191 Y110.955 E32.44450
G1 X31.191 Y111.619 E32.47819
G1 X31.231 Y111.659 E32.48106
G1 X30.874 Y111.976 F4200.000
G1 X30.874 Y88.024 E33.68291 F1200.000
G1 X42.126 Y88.024 E34.24749
G1 X42.126 Y111.976 E35.44934
G1 X30.934 Y111.976 E36.01092
G1 X30.410 Y112.440 F4200.000
G1 X30.410 Y87.560 E37.25935 F1200.000
G1 X42.590 Y87.560 E37.87052
G1 X42.590 Y112.440 E39.11896
G1 X30.470 Y112.440 E39.72712
G1 X30.610 Y112.094 F4200.000
G1 E35.72712 F780.00000
G92 E0
G1 Z0.260 F4200.000
G93 R10.0 
G92 E0
G1 E-4.00000 F780.00000
G92 E0
G1 X43.931 Y111.659 F4200.000
G1 E4.00000 F780.00000
G1 X43.891 Y111.619 E4.00287 F1200.000
G1 X43.891 Y110.955 E4.03655
G1 X44.595 Y111.659 E4.08706
G1 X45.258 Y111.659 E4.12075
G1 X43.891 Y110.292 E4.21889
G1 X43.891 Y109.628 E4.25258
G1 X45.922 Y111.659 E4.39837
G1 X46.586 Y111.659 E4.43205
G1 X43.891 Y108.964 E4.62548
G1 X43.891 Y108.300 E4.65916
G1 X47.250 Y111.659 E4.90023
G1 X47.914 Y111.659 E4.93392
G1 X43.891 Y107.636 E5.22262
G1 X43.891 Y106.972 E5.25631
G1 X48.578 Y111.659 E5.59265
G1 X49.242 Y111.659 E5.62634
G1 X43.891 Y106.308 E6.01032
G1 X43.891 Y105.645 E6.04401
G1 X49.905 Y111.659 E6.47563
G1 X50.569 Y111.659 E6.50932
G1 X43.891 Y104.981 E6.98858
G1 X43.891 Y104.317 E7.02226
G1 X51.233 Y111.659 E7.54917
G1 X51.897 Y111.659 E7.58285
G1 X43.891 Y103.653 E8.15739
G1 X43.891 Y102.989 E8.19108
G1 X52.561 Y111.659 E8.81326
G1 X53.225 Y111.659 E8.84695
G1 X43.891 Y102.325 E9.51677
G1 X43.891 Y101.661 E9.55045
G1 X53.889 Y111.659 E10.26791
G1 X54.509 Y111.616 E10.29948
G1 X43.891 Y100.997 E11.06148
G1 X43.891 Y100.334 E11.09516
G1 X54.509 Y110.952 E11.85716
G1 X54.509 Y110.288 E11.89084
G1 X43.891 Y99.670 E12.65284
G1 X43.891 Y99.006 E12.68652
G1 X54.509 Y109.624 E13.44852
G1 X54.509 Y108.961 E13.48220
G1 X43.891 Y98.342 E14.24420
G1 X43.891 Y97.678 E14.27789
G1 X54.509 Y108.297 E15.03988
G1 X54.509 Y107.633 E15.07357
G1 X43.891 Y97.014 E15.83556
G1 X43.891 Y96.350 E15.86925
G1 X54.509 Y106.969 E16.63124
G1 X54.509 Y106.305 E16.66493
G1 X43.891 Y95.687 E17.42692
G1 X43.891 Y95.023 E17.46061
G1 X54.509 Y105.641 E18.22260
G1 X54.509 Y104.977 E18.25629
G1 X43.891 Y94.359 E19.01828
G1 X43.891 Y93.695 E19.05197
G1 X54.509 Y104.313 E19.81397
G1 X54.509 Y103.650 E19.84765
G1 X43.891 Y93.031 E20.60965
G1 X43.891 Y92.367 E20.64333
G1 X54.509 Y102.986 E21.40533
G1 X54.509 Y102.322 E21.43901
G1 X43.891 Y91.703 E22.20101
G1 X43.891 Y91.039 E22.23469
G1 X54.509 Y101.658 E22.99669
G1 X54.509 Y100.994 E23.03037
G1 X43.891 Y90.376 E23.79237
G1 X43.891 Y89.712 E23.82606
G1 X54.509 Y100.330 E24.58805
G1 X54.509 Y99.666 E24.62174
G1 X43.891 Y89.048 E25.38373
G1 X43.891 Y88.384 E25.41742
G1 X54.509 Y99.003 E26.17941
G1 X54.509 Y98.339 E26.21310
G1 X44.511 Y88.341 E26.93056
G1 X45.175 Y88.341 E26.96425
G1 X54.509 Y97.675 E27.63407
G1 X54.509 Y97.011 E27.66776
G1 X45.839 Y88.341 E28.28994
G1 X46.503 Y88.341 E28.32363
G1 X54.509 Y96.347 E28.89817
G1 X54.509 Y95.683 E28.93186
G1 X47.167 Y88.341 E29.45876
G1 X47.831 Y88.341 E29.49245
G1 X54.509 Y95.019 E29.97171
G1 X54.509 Y94.356 E30.00540
G1 X48.494 Y88.341 E30.43703
G1 X49.158 Y88.341 E30.47071
G1 X54.509 Y93.692 E30.85470
G1 X54.509 Y93.028 E30.88838
G1 X49.822 Y88.341 E31.22473
G1 X50.486 Y88.341 E31.25842
G1 X54.509 Y92.364 E31.54712
G1 X54.509 Y91.700 E31.58081
G1 X51.150 Y88.341 E31.82188
G1 X51.814 Y88.341 E31.85556
G1 X54.509 Y91.036 E32.04899
G1 X54.509 Y90.372 E32.08268
G1 X52.478 Y88.341 E32.22847
G1 X53.142 Y88.341 E32.26215
G1 X54.509 Y89.708 E32.36030
G1 X54.509 Y89.045 E32.39399
G1 X53.805 Y88.341 E32.44450
G1 X54.469 Y88.341 E32.47819
G1 X54.509 Y88.381 E32.48106
G1 X54.826 Y88.024 F4200.000
G1 X54.826 Y111.976 E33.68291 F1200.000
G1 X43.574 Y111.976 E34.24749
G1 X43.574 Y88.024 E35.44934
G1 X54.766 Y88.024 E36.01092
G1 X55.290 Y87.560 F4200.000
G1 X55.290 Y112.440 E37.25935 F1200.000
G1 X43.110 Y112.440 E37.87052
G1 X43.110 Y87.560 E39.11896
G1 X55.230 Y87.560 E39.72712
G1 X55.090 Y87.906 F4200.000
G1 E35.72712 F780.00000
G92 E0
G1 Z0.260 F4200.000
G93 R20.0 
G92 E0
G1 E-4.00000 F780.00000
G92 E0
G1 X67.209 Y88.381 F4200.000
G1 E4.00000 F780.00000
G1 X67.169 Y88.341 E4.00287 F1200.000
G1 X66.505 Y88.341 E4.03656
G1 X67.209 Y89.045 E4.08707
G1 X67.209 Y89.708 E4.12075
G1 X65.842 Y88.341 E4.21890
G1 X65.178 Y88.341 E4.25259
G1 X67.209 Y90.372 E4.39838
G1 X67.209 Y91.036 E4.43206
G1 X64.514 Y88.341 E4.62549
G1 X63.850 Y88.341 E4.65918
G1 X67.209 Y91.700 E4.90025
G1 X67.209 Y92.364 E4.93393
G1 X63.186 Y88.341 E5.22264
G1 X62.522 Y88.341 E5.25633
G1 X67.209 Y93.028 E5.59267
G1 X67.209 Y93.692 E5.62636
G1 X61.858 Y88.341 E6.01035
G1 X61.194 Y88.341 E6.04403
G1 X67.209 Y94.356 E6.47566
G1 X67.209 Y95.019 E6.50934
G1 X60.531 Y88.341 E6.98861
G1 X59.867 Y88.341 E7.02229
G1 X67.209 Y95.683 E7.54920
G1 X67.209 Y96.347 E7.58289
G1 X59.203 Y88.341 E8.15743
G1 X58.539 Y88.341 E8.19112
G1 X67.209 Y97.011 E8.81330
G1 X67.209 Y97.675 E8.84699
G1 X57.875 Y88.341 E9.51681
G1 X57.211 Y88.341 E9.55050
G1 X67.209 Y98.339 E10.26796
G1 X67.209 Y99.003 E10.30164
G1 X56.591 Y88.384 E11.06364
G1 X56.591 Y89.048 E11.09732
G1 X67.209 Y99.666 E11.85932
G1 X67.209 Y100.330 E11.89301
G1 X56.591 Y89.712 E12.65500
G1 X56.591 Y90.376 E12.68869
G1 X67.209 Y100.994 E13.45068
G1 X67.209 Y101.658 E13.48437
G1 X56.591 Y91.039 E14.24636
G1 X56.591 Y91.703 E14.28005
G1 X67.209 Y102.322 E15.04204
G1 X67.209 Y102.986 E15.07573
G1 X56.591 Y92.367 E15.83772
G1 X56.591 Y93.031 E15.87141
G1 X67.209 Y103.650 E16.63340
G1 X67.209 Y104.313 E16.66709
G1 X56.591 Y93.695 E17.42909
G1 X56.591 Y94.359 E17.46277
G1 X67.209 Y104.977 E18.22477
G1 X67.209 Y105.641 E18.25845
G1 X56.591 Y95.023 E19.02045
G1 X56.591 Y95.687 E19.05413
G1 X67.209 Y106.305 E19.81613
G1 X67.209 Y106.969 E19.84981
G1 X56.591 Y96.350 E20.61181
G1 X56.591 Y97.014 E20.64550
G1 X67.209 Y107.633 E21.40749
G1 X67.209 Y108.297 E21.44118
G1 X56.591 Y97.678 E22.20317
G1 X56.591 Y98.342 E22.23686
G1 X67.209 Y108.961 E22.99885
G1 X67.209 Y109.624 E23.03254
G1 X56.591 Y99.006 E23.79453
G1 X56.591 Y99.670 E23.82822
G1 X67.209 Y110.288 E24.59021
G1 X67.209 Y110.952 E24.62390
G1 X56.591 Y100.334 E25.38589
G1 X56.591 Y100.997 E25.41958
G1 X67.209 Y111.616 E26.18158
G1 X66.589 Y111.659 E26.21314
G1 X56.591 Y101.661 E26.93060
G1 X56.591 Y102.325 E26.96429
G1 X65.925 Y111.659 E27.63411
G1 X65.261 Y111.659 E27.66780
G1 X56.591 Y102.989 E28.28998
G1 X56.591 Y103.653 E28.32366
G1 X64.597 Y111.659 E28.89820
G1 X63.933 Y111.659 E28.93189
G1 X56.591 Y104.317 E29.45879
G1 X56.591 Y104.981 E29.49248
G1 X63.269 Y111.659 E29.97174
G1 X62.605 Y111.659 E30.00543
G1 X56.591 Y105.645 E30.43705
G1 X56.591 Y106.308 E30.47074
G1 X61.942 Y111.659 E30.85472
G1 X61.278 Y111.659 E30.88841
G1 X56.591 Y106.972 E31.22475
G1 X56.591 Y107.636 E31.25844
G1 X60.614 Y111.659 E31.54714
G1 X59.950 Y111.659 E31.58083
G1 X56.591 Y108.300 E31.82189
G1 X56.591 Y108.964 E31.85558
G1 X59.286 Y111.659 E32.04900
G1 X58.622 Y111.659 E32.08269
G1 X56.591 Y109.628 E32.22848
G1 X56.591 Y110.292 E32.26216
G1 X57.958 Y111.659 E32.36031
G1 X57.295 Y111.659 E32.39399
G1 X56.591 Y110.955 E32.44450
G1 X56.591 Y111.619 E32.47819
G1 X56.631 Y111.659 E32.48106
G1 X56.274 Y111.976 F4200.000
G1 X56.274 Y88.024 E33.68291 F1200.000
G1 X67.526 Y88.024 E34.24749
G1 X67.526 Y111.976 E35.44934
G1 X56.334 Y111.976 E36.01092
G1 X55.810 Y112.440 F4200.000
G1 X55.810 Y87.560 E37.25935 F1200.000
G1 X67.990 Y87.560 E37.87052
