; generated by Slic3r 1.2.5 on 2015-01-21 at 13:23:59

; external perimeters extrusion width = 0.40mm
; perimeters extrusion width = 0.67mm
; infill extrusion width = 0.67mm
; solid infill extrusion width = 0.67mm
; top infill extrusion width = 0.67mm

; external perimeters extrusion width = 0.40mm
; perimeters extrusion width = 0.67mm
; infill extrusion width = 0.67mm
; solid infill extrusion width = 0.67mm
; top infill extrusion width = 0.67mm

; external perimeters extrusion width = 0.40mm
; perimeters extrusion width = 0.67mm
; infill extrusion width = 0.67mm
; solid infill extrusion width = 0.67mm
; top infill extrusion width = 0.67mm

; external perimeters extrusion width = 0.40mm
; perimeters extrusion width = 0.67mm
; infill extrusion width = 0.67mm
; solid infill extrusion width = 0.67mm
; top infill extrusion width = 0.67mm

; external perimeters extrusion width = 0.40mm
; perimeters extrusion width = 0.67mm
; infill extrusion width = 0.67mm
; solid infill extrusion width = 0.67mm
; top infill extrusion width = 0.67mm

M104 S215 T0 ; set temperature
M104 S215 T1 ; set temperature
M104 S215 T2 ; set temperature
M104 S215 T3 ; set temperature
M104 S215 T4 ; set temperature
G28 ; home all axes
M106 ; Fan on
M109 S215 T0 ; wait for temperature to be reached
M109 S215 T1 ; wait for temperature to be reached
M109 S215 T2 ; wait for temperature to be reached
M109 S215 T3 ; wait for temperature to be reached
M109 S215 T4 ; wait for temperature to be reached
G21 ; set units to millimeters
G90 ; use absolute coordinates
M82 ; use absolute distances for extrusion
G92 E0
T0
G92 E0
G1 E-4.00000 F780.00000
G92 E0
G1 Z0.260 F4200.000
G1 X74.181 Y86.128 F4200.000
G1 E4.00000 F780.00000
G1 X76.396 Y85.144 E4.12161 F1200.000
G1 X78.250 Y84.907 E4.21538
G1 X141.750 Y84.907 E7.40170
G1 X144.141 Y85.305 E7.52332
G1 X146.275 Y86.454 E7.64493 F1200.000
G1 X147.922 Y88.231 E7.76655
G1 X148.906 Y90.446 E7.88816
G1 X149.143 Y92.300 E7.98193
G1 X149.143 Y117.700 E9.25646
G1 X148.745 Y120.091 E9.37808
G1 X147.596 Y122.225 E9.49969
G1 X145.819 Y123.872 E9.62130
G1 X143.604 Y124.856 E9.74292
G1 X141.750 Y125.093 E9.83669
G1 X78.250 Y125.093 E13.02301
G1 X75.859 Y124.695 E13.14462
G1 X73.725 Y123.546 E13.26624
G1 X72.078 Y121.769 E13.38785
G1 X71.094 Y119.554 E13.50947
G1 X70.857 Y117.700 E13.60324
G1 X70.857 Y92.300 E14.87777
G1 X71.255 Y89.909 E14.99938
G1 X72.404 Y87.775 E15.12099
G1 X74.137 Y86.168 E15.23960
G1 X74.462 Y86.539 F4200.000
G1 X74.628 Y86.394 E15.25063 F1200.000
G1 X76.806 Y85.524 E15.36834
G1 X78.250 Y85.372 E15.44119
G1 X141.750 Y85.372 E18.62751
G1 X144.062 Y85.769 E18.74522
G1 X146.109 Y86.915 E18.86293 F1200.000
G1 X147.656 Y88.678 E18.98063
G1 X148.526 Y90.856 E19.09834
G1 X148.678 Y92.300 E19.17119
G1 X148.678 Y117.700 E20.44572
G1 X148.281 Y120.012 E20.56343
G1 X147.135 Y122.059 E20.68114
G1 X145.372 Y123.606 E20.79885
G1 X143.194 Y124.476 E20.91655
G1 X141.750 Y124.628 E20.98941
G1 X78.250 Y124.628 E24.17573
G1 X75.938 Y124.231 E24.29343
G1 X73.891 Y123.085 E24.41114
G1 X72.344 Y121.322 E24.52885
G1 X71.474 Y119.144 E24.64656
G1 X71.322 Y117.700 E24.71941
G1 X71.322 Y92.300 E25.99394
G1 X71.719 Y89.988 E26.11165
G1 X72.865 Y87.941 E26.22935
G1 X74.417 Y86.578 E26.33302
G1 X74.728 Y86.955 F4200.000
G1 X75.071 Y86.671 E26.35537 F1200.000
G1 X78.250 Y85.836 E26.52028
G1 X141.750 Y85.836 E29.70660
G1 X143.980 Y86.233 E29.82027
G1 X145.937 Y87.375 E29.93393 F1200.000
G1 X147.379 Y89.121 E30.04760
G1 X148.214 Y92.300 E30.21251
G1 X148.214 Y117.700 E31.48704
G1 X147.817 Y119.930 E31.60070
G1 X146.675 Y121.887 E31.71437
G1 X144.929 Y123.329 E31.82803
G1 X141.750 Y124.164 E31.99294
G1 X78.250 Y124.164 E35.17926
G1 X76.020 Y123.767 E35.29293
G1 X74.063 Y122.625 E35.40660
G1 X72.621 Y120.879 E35.52026
G1 X71.786 Y117.700 E35.68517
G1 X71.786 Y92.300 E36.95970
G1 X72.183 Y90.070 E37.07337
G1 X73.325 Y88.113 E37.18703
G1 X74.682 Y86.993 E37.27534
G1 E33.27534 F780.00000
G92 E0
G1 X89.909 Y93.381 F4200.000
G1 E4.00000 F780.00000
G1 X89.869 Y93.341 E4.00287 F1200.000
G1 X89.205 Y93.341 E4.03656
G1 X89.909 Y94.045 E4.08707
G1 X89.909 Y94.708 E4.12075
G1 X88.542 Y93.341 E4.21890
G1 X87.878 Y93.341 E4.25259
G1 X89.909 Y95.372 E4.39838
G1 X89.909 Y96.036 E4.43206
G1 X87.214 Y93.341 E4.62549
G1 X86.550 Y93.341 E4.65918
G1 X89.909 Y96.700 E4.90025
G1 X89.909 Y97.364 E4.93393
G1 X85.886 Y93.341 E5.22264
G1 X85.222 Y93.341 E5.25633
G1 X89.909 Y98.028 E5.59267
G1 X89.909 Y98.692 E5.62636
G1 X84.558 Y93.341 E6.01035
G1 X83.894 Y93.341 E6.04403
G1 X89.909 Y99.356 E6.47566
G1 X89.909 Y100.019 E6.50934
G1 X83.231 Y93.341 E6.98861
G1 X82.567 Y93.341 E7.02229
G1 X89.909 Y100.683 E7.54920
G1 X89.909 Y101.347 E7.58289
G1 X81.903 Y93.341 E8.15743
G1 X81.239 Y93.341 E8.19112
G1 X89.909 Y102.011 E8.81330
G1 X89.909 Y102.675 E8.84699
G1 X80.575 Y93.341 E9.51681
G1 X79.911 Y93.341 E9.55050
G1 X89.909 Y103.339 E10.26796
G1 X89.909 Y104.003 E10.30164
G1 X79.291 Y93.384 E11.06364
G1 X79.291 Y94.048 E11.09732
G1 X89.909 Y104.666 E11.85932
G1 X89.909 Y105.330 E11.89301
G1 X79.291 Y94.712 E12.65500
G1 X79.291 Y95.376 E12.68869
G1 X89.909 Y105.994 E13.45068
G1 X89.909 Y106.658 E13.48437
G1 X79.291 Y96.039 E14.24636
G1 X79.291 Y96.703 E14.28005
G1 X89.909 Y107.322 E15.04204
G1 X89.909 Y107.986 E15.07573
G1 X79.291 Y97.367 E15.83772
G1 X79.291 Y98.031 E15.87141
G1 X89.909 Y108.650 E16.63340
G1 X89.909 Y109.313 E16.66709
G1 X79.291 Y98.695 E17.42909
G1 X79.291 Y99.359 E17.46277
G1 X89.909 Y109.977 E18.22477
G1 X89.909 Y110.641 E18.25845
G1 X79.291 Y100.023 E19.02045
G1 X79.291 Y100.687 E19.05413
G1 X89.909 Y111.305 E19.81613
G1 X89.909 Y111.969 E19.84981
G1 X79.291 Y101.350 E20.61181
G1 X79.291 Y102.014 E20.64550
G1 X89.909 Y112.633 E21.40749
G1 X89.909 Y113.297 E21.44118
G1 X79.291 Y102.678 E22.20317
G1 X79.291 Y103.342 E22.23686
G1 X89.909 Y113.961 E22.99885
G1 X89.909 Y114.624 E23.03254
G1 X79.291 Y104.006 E23.79453
G1 X79.291 Y104.670 E23.82822
G1 X89.909 Y115.288 E24.59021
G1 X89.909 Y115.952 E24.62390
G1 X79.291 Y105.334 E25.38589
G1 X79.291 Y105.997 E25.41958
G1 X89.909 Y116.616 E26.18158
G1 X89.289 Y116.659 E26.21314
G1 X79.291 Y106.661 E26.93060
G1 X79.291 Y107.325 E26.96429
G1 X88.625 Y116.659 E27.63411
G1 X87.961 Y116.659 E27.66780
G1 X79.291 Y107.989 E28.28998
G1 X79.291 Y108.653 E28.32366
G1 X87.297 Y116.659 E28.89820
G1 X86.633 Y116.659 E28.93189
G1 X79.291 Y109.317 E29.45879
G1 X79.291 Y109.981 E29.49248
G1 X85.969 Y116.659 E29.97174
G1 X85.305 Y116.659 E30.00543
G1 X79.291 Y110.645 E30.43705
G1 X79.291 Y111.308 E30.47074
G1 X84.642 Y116.659 E30.85472
G1 X83.978 Y116.659 E30.88841
G1 X79.291 Y111.972 E31.22475
G1 X79.291 Y112.636 E31.25844
G1 X83.314 Y116.659 E31.54714
G1 X82.650 Y116.659 E31.58083
G1 X79.291 Y113.300 E31.82189
G1 X79.291 Y113.964 E31.85558
G1 X81.986 Y116.659 E32.04900
G1 X81.322 Y116.659 E32.08269
G1 X79.291 Y114.628 E32.22848
G1 X79.291 Y115.292 E32.26216
G1 X80.658 Y116.659 E32.36031
G1 X79.995 Y116.659 E32.39399
G1 X79.291 Y115.955 E32.44450
G1 X79.291 Y116.619 E32.47819
G1 X79.331 Y116.659 E32.48106
G1 X78.974 Y116.976 F4200.000
G1 X78.974 Y93.024 E33.68291 F1200.000
G1 X90.226 Y93.024 E34.24749
G1 X90.226 Y116.976 E35.44934
G1 X79.034 Y116.976 E36.01092
G1 X78.510 Y117.440 F4200.000
G1 X78.510 Y92.560 E37.25935 F1200.000
G1 X90.690 Y92.560 E37.87052
G1 X90.690 Y117.440 E39.11896
G1 X78.570 Y117.440 E39.72712
G1 X78.710 Y117.094 F4200.000
G1 E35.72712 F780.00000
G92 E0
G1 Z0.260 F4200.000
T1
G92 E0
G1 E-4.00000 F780.00000
G92 E0
G1 X92.031 Y116.659 F4200.000
G1 E4.00000 F780.00000
G1 X91.991 Y116.619 E4.00287 F1200.000
G1 X91.991 Y115.955 E4.03655
G1 X92.695 Y116.659 E4.08706
G1 X93.358 Y116.659 E4.12075
G1 X91.991 Y115.292 E4.21889
G1 X91.991 Y114.628 E4.25258
G1 X94.022 Y116.659 E4.39837
G1 X94.686 Y116.659 E4.43205
G1 X91.991 Y113.964 E4.62548
G1 X91.991 Y113.300 E4.65916
G1 X95.350 Y116.659 E4.90023
G1 X96.014 Y116.659 E4.93392
G1 X91.991 Y112.636 E5.22262
G1 X91.991 Y111.972 E5.25631
G1 X96.678 Y116.659 E5.59265
G1 X97.342 Y116.659 E5.62634
G1 X91.991 Y111.308 E6.01032
G1 X91.991 Y110.645 E6.04401
G1 X98.005 Y116.659 E6.47563
G1 X98.669 Y116.659 E6.50932
G1 X91.991 Y109.981 E6.98858
G1 X91.991 Y109.317 E7.02226
G1 X99.333 Y116.659 E7.54917
G1 X99.997 Y116.659 E7.58285
G1 X91.991 Y108.653 E8.15739
G1 X91.991 Y107.989 E8.19108
G1 X100.661 Y116.659 E8.81326
G1 X101.325 Y116.659 E8.84695
G1 X91.991 Y107.325 E9.51677
G1 X91.991 Y106.661 E9.55045
G1 X101.989 Y116.659 E10.26791
G1 X102.609 Y116.616 E10.29948
G1 X91.991 Y105.997 E11.06148
G1 X91.991 Y105.334 E11.09516
G1 X102.609 Y115.952 E11.85716
G1 X102.609 Y115.288 E11.89084
G1 X91.991 Y104.670 E12.65284
G1 X91.991 Y104.006 E12.68652
G1 X102.609 Y114.624 E13.44852
G1 X102.609 Y113.961 E13.48220
G1 X91.991 Y103.342 E14.24420
G1 X91.991 Y102.678 E14.27789
G1 X102.609 Y113.297 E15.03988
G1 X102.609 Y112.633 E15.07357
G1 X91.991 Y102.014 E15.83556
G1 X91.991 Y101.350 E15.86925
G1 X102.609 Y111.969 E16.63124
G1 X102.609 Y111.305 E16.66493
G1 X91.991 Y100.687 E17.42692
G1 X91.991 Y100.023 E17.46061
G1 X102.609 Y110.641 E18.22260
G1 X102.609 Y109.977 E18.25629
G1 X91.991 Y99.359 E19.01828
G1 X91.991 Y98.695 E19.05197
G1 X102.609 Y109.313 E19.81397
G1 X102.609 Y108.650 E19.84765
G1 X91.991 Y98.031 E20.60965
G1 X91.991 Y97.367 E20.64333
G1 X102.609 Y107.986 E21.40533
G1 X102.609 Y107.322 E21.43901
G1 X91.991 Y96.703 E22.20101
G1 X91.991 Y96.039 E22.23469
G1 X102.609 Y106.658 E22.99669
G1 X102.609 Y105.994 E23.03037
G1 X91.991 Y95.376 E23.79237
G1 X91.991 Y94.712 E23.82606
G1 X102.609 Y105.330 E24.58805
G1 X102.609 Y104.666 E24.62174
G1 X91.991 Y94.048 E25.38373
G1 X91.991 Y93.384 E25.41742
G1 X102.609 Y104.003 E26.17941
G1 X102.609 Y103.339 E26.21310
G1 X92.611 Y93.341 E26.93056
G1 X93.275 Y93.341 E26.96425
G1 X102.609 Y102.675 E27.63407
G1 X102.609 Y102.011 E27.66776
G1 X93.939 Y93.341 E28.28994
G1 X94.603 Y93.341 E28.32363
G1 X102.609 Y101.347 E28.89817
G1 X102.609 Y100.683 E28.93186
G1 X95.267 Y93.341 E29.45876
G1 X95.931 Y93.341 E29.49245
G1 X102.609 Y100.019 E29.97171
G1 X102.609 Y99.356 E30.00540
G1 X96.594 Y93.341 E30.43703
G1 X97.258 Y93.341 E30.47071
G1 X102.609 Y98.692 E30.85470
G1 X102.609 Y98.028 E30.88838
G1 X97.922 Y93.341 E31.22473
G1 X98.586 Y93.341 E31.25842
G1 X102.609 Y97.364 E31.54712
G1 X102.609 Y96.700 E31.58081
G1 X99.250 Y93.341 E31.82188
G1 X99.914 Y93.341 E31.85556
G1 X102.609 Y96.036 E32.04899
G1 X102.609 Y95.372 E32.08268
G1 X100.578 Y93.341 E32.22847
G1 X101.242 Y93.341 E32.26215
G1 X102.609 Y94.708 E32.36030
G1 X102.609 Y94.045 E32.39399
G1 X101.905 Y93.341 E32.44450
G1 X102.569 Y93.341 E32.47819
G1 X102.609 Y93.381 E32.48106
G1 X102.926 Y93.024 F4200.000
G1 X102.926 Y116.976 E33.68291 F1200.000
G1 X91.674 Y116.976 E34.24749
G1 X91.674 Y93.024 E35.44934
G1 X102.866 Y93.024 E36.01092
G1 X103.390 Y92.560 F4200.000
G1 X103.390 Y117.440 E37.25935 F1200.000
G1 X91.210 Y117.440 E37.87052
G1 X91.210 Y92.560 E39.11896
G1 X103.330 Y92.560 E39.72712
G1 X103.190 Y92.906 F4200.000
G1 E35.72712 F780.00000
G92 E0
G1 Z0.260 F4200.000
T2
G92 E0
G1 E-4.00000 F780.00000
G92 E0
G1 X115.309 Y93.381 F4200.000
G1 E4.00000 F780.00000
G1 X115.269 Y93.341 E4.00287 F1200.000
G1 X114.605 Y93.341 E4.03656
G1 X115.309 Y94.045 E4.08707
G1 X115.309 Y94.708 E4.12075
G1 X113.942 Y93.341 E4.21890
G1 X113.278 Y93.341 E4.25259
G1 X115.309 Y95.372 E4.39838
G1 X115.309 Y96.036 E4.43206
G1 X112.614 Y93.341 E4.62549
G1 X111.950 Y93.341 E4.65918
G1 X115.309 Y96.700 E4.90025
G1 X115.309 Y97.364 E4.93393
G1 X111.286 Y93.341 E5.22264
G1 X110.622 Y93.341 E5.25633
G1 X115.309 Y98.028 E5.59267
G1 X115.309 Y98.692 E5.62636
G1 X109.958 Y93.341 E6.01035
G1 X109.294 Y93.341 E6.04403
G1 X115.309 Y99.356 E6.47566
G1 X115.309 Y100.019 E6.50934
G1 X108.631 Y93.341 E6.98861
G1 X107.967 Y93.341 E7.02229
G1 X115.309 Y100.683 E7.54920
G1 X115.309 Y101.347 E7.58289
G1 X107.303 Y93.341 E8.15743
G1 X106.639 Y93.341 E8.19112
G1 X115.309 Y102.011 E8.81330
G1 X115.309 Y102.675 E8.84699
G1 X105.975 Y93.341 E9.51681
G1 X105.311 Y93.341 E9.55050
G1 X115.309 Y103.339 E10.26796
G1 X115.309 Y104.003 E10.30164
G1 X104.691 Y93.384 E11.06364
G1 X104.691 Y94.048 E11.09732
G1 X115.309 Y104.666 E11.85932
G1 X115.309 Y105.330 E11.89301
G1 X104.691 Y94.712 E12.65500
G1 X104.691 Y95.376 E12.68869
G1 X115.309 Y105.994 E13.45068
G1 X115.309 Y106.658 E13.48437
G1 X104.691 Y96.039 E14.24636
G1 X104.691 Y96.703 E14.28005
G1 X115.309 Y107.322 E15.04204
G1 X115.309 Y107.986 E15.07573
G1 X104.691 Y97.367 E15.83772
G1 X104.691 Y98.031 E15.87141
G1 X115.309 Y108.650 E16.63340
G1 X115.309 Y109.313 E16.66709
G1 X104.691 Y98.695 E17.42909
G1 X104.691 Y99.359 E17.46277
G1 X115.309 Y109.977 E18.22477
G1 X115.309 Y110.641 E18.25845
G1 X104.691 Y100.023 E19.02045
G1 X104.691 Y100.687 E19.05413
G1 X115.309 Y111.305 E19.81613
G1 X115.309 Y111.969 E19.84981
G1 X104.691 Y101.350 E20.61181
G1 X104.691 Y102.014 E20.64550
G1 X115.309 Y112.633 E21.40749
G1 X115.309 Y113.297 E21.44118
G1 X104.691 Y102.678 E22.20317
G1 X104.691 Y103.342 E22.23686
G1 X115.309 Y113.961 E22.99885
G1 X115.309 Y114.624 E23.03254
G1 X104.691 Y104.006 E23.79453
G1 X104.691 Y104.670 E23.82822
G1 X115.309 Y115.288 E24.59021
G1 X115.309 Y115.952 E24.62390
G1 X104.691 Y105.334 E25.38589
G1 X104.691 Y105.997 E25.41958
G1 X115.309 Y116.616 E26.18158
G1 X114.689 Y116.659 E26.21314
G1 X104.691 Y106.661 E26.93060
G1 X104.691 Y107.325 E26.96429
G1 X114.025 Y116.659 E27.63411
G1 X113.361 Y116.659 E27.66780
G1 X104.691 Y107.989 E28.28998
G1 X104.691 Y108.653 E28.32366
G1 X112.697 Y116.659 E28.89820
G1 X112.033 Y116.659 E28.93189
G1 X104.691 Y109.317 E29.45879
G1 X104.691 Y109.981 E29.49248
G1 X111.369 Y116.659 E29.97174
G1 X110.705 Y116.659 E30.00543
G1 X104.691 Y110.645 E30.43705
G1 X104.691 Y111.308 E30.47074
G1 X110.042 Y116.659 E30.85472
G1 X109.378 Y116.659 E30.88841
G1 X104.691 Y111.972 E31.22475
G1 X104.691 Y112.636 E31.25844
G1 X108.714 Y116.659 E31.54714
G1 X108.050 Y116.659 E31.58083
G1 X104.691 Y113.300 E31.82189
G1 X104.691 Y113.964 E31.85558
G1 X107.386 Y116.659 E32.04900
G1 X106.722 Y116.659 E32.08269
G1 X104.691 Y114.628 E32.22848
G1 X104.691 Y115.292 E32.26216
G1 X106.058 Y116.659 E32.36031
G1 X105.395 Y116.659 E32.39399
G1 X104.691 Y115.955 E32.44450
G1 X104.691 Y116.619 E32.47819
G1 X104.731 Y116.659 E32.48106
G1 X104.374 Y116.976 F4200.000
G1 X104.374 Y93.024 E33.68291 F1200.000
G1 X115.626 Y93.024 E34.24749
G1 X115.626 Y116.976 E35.44934
G1 X104.434 Y116.976 E36.01092
G1 X103.910 Y117.440 F4200.000
G1 X103.910 Y92.560 E37.25935 F1200.000
G1 X116.090 Y92.560 E37.87052
G1 X116.090 Y117.440 E39.11896
G1 X103.970 Y117.440 E39.72712
G1 X104.110 Y117.094 F4200.000
G1 E35.72712 F780.00000
G92 E0
G1 Z0.260 F4200.000
T3
G92 E0
G1 E-4.00000 F780.00000
G92 E0
G1 X117.431 Y116.659 F4200.000
G1 E4.00000 F780.00000
G1 X117.391 Y116.619 E4.00287 F1200.000
G1 X117.391 Y115.955 E4.03655
G1 X118.095 Y116.659 E4.08706
G1 X118.758 Y116.659 E4.12075
G1 X117.391 Y115.292 E4.21889
G1 X117.391 Y114.628 E4.25258
G1 X119.422 Y116.659 E4.39837
G1 X120.086 Y116.659 E4.43205
G1 X117.391 Y113.964 E4.62548
G1 X117.391 Y113.300 E4.65916
G1 X120.750 Y116.659 E4.90023
G1 X121.414 Y116.659 E4.93392
G1 X117.391 Y112.636 E5.22262
G1 X117.391 Y111.972 E5.25631
G1 X122.078 Y116.659 E5.59265
G1 X122.742 Y116.659 E5.62634
G1 X117.391 Y111.308 E6.01032
G1 X117.391 Y110.645 E6.04401
G1 X123.405 Y116.659 E6.47563
G1 X124.069 Y116.659 E6.50932
G1 X117.391 Y109.981 E6.98858
G1 X117.391 Y109.317 E7.02226
G1 X124.733 Y116.659 E7.54917
G1 X125.397 Y116.659 E7.58285
G1 X117.391 Y108.653 E8.15739
G1 X117.391 Y107.989 E8.19108
G1 X126.061 Y116.659 E8.81326
G1 X126.725 Y116.659 E8.84695
G1 X117.391 Y107.325 E9.51677
G1 X117.391 Y106.661 E9.55045
G1 X127.389 Y116.659 E10.26791
G1 X128.009 Y116.616 E10.29948
G1 X117.391 Y105.997 E11.06148
G1 X117.391 Y105.334 E11.09516
G1 X128.009 Y115.952 E11.85716
G1 X128.009 Y115.288 E11.89084
G1 X117.391 Y104.670 E12.65284
G1 X117.391 Y104.006 E12.68652
G1 X128.009 Y114.624 E13.44852
G1 X128.009 Y113.961 E13.48220
G1 X117.391 Y103.342 E14.24420
