; generated by Slic3r 1.2.5 on 2015-01-23 at 16:33:28

; external perimeters extrusion width = 0.40mm
; perimeters extrusion width = 0.67mm
; infill extrusion width = 0.67mm
; solid infill extrusion width = 0.67mm
; top infill extrusion width = 0.67mm

; external perimeters extrusion width = 0.40mm
; perimeters extrusion width = 0.67mm
; infill extrusion width = 0.67mm
; solid infill extrusion width = 0.67mm
; top infill extrusion width = 0.67mm

; external perimeters extrusion width = 0.40mm
; perimeters extrusion width = 0.67mm
; infill extrusion width = 0.67mm
; solid infill extrusion width = 0.67mm
; top infill extrusion width = 0.67mm

; external perimeters extrusion width = 0.40mm
; perimeters extrusion width = 0.67mm
; infill extrusion width = 0.67mm
; solid infill extrusion width = 0.67mm
; top infill extrusion width = 0.67mm

; external perimeters extrusion width = 0.40mm
; perimeters extrusion width = 0.67mm
; infill extrusion width = 0.67mm
; solid infill extrusion width = 0.67mm
; top infill extrusion width = 0.67mm

; external perimeters extrusion width = 0.40mm
; perimeters extrusion width = 0.67mm
; infill extrusion width = 0.67mm
; solid infill extrusion width = 0.67mm
; top infill extrusion width = 0.67mm

; external perimeters extrusion width = 0.40mm
; perimeters extrusion width = 0.67mm
; infill extrusion width = 0.67mm
; solid infill extrusion width = 0.67mm
; top infill extrusion width = 0.67mm

; external perimeters extrusion width = 0.40mm
; perimeters extrusion width = 0.67mm
; infill extrusion width = 0.67mm
; solid infill extrusion width = 0.67mm
; top infill extrusion width = 0.67mm

; external perimeters extrusion width = 0.40mm
; perimeters extrusion width = 0.67mm
; infill extrusion width = 0.67mm
; solid infill extrusion width = 0.67mm
; top infill extrusion width = 0.67mm

; external perimeters extrusion width = 0.40mm
; perimeters extrusion width = 0.67mm
; infill extrusion width = 0.67mm
; solid infill extrusion width = 0.67mm
; top infill extrusion width = 0.67mm

; external perimeters extrusion width = 0.40mm
; perimeters extrusion width = 0.67mm
; infill extrusion width = 0.67mm
; solid infill extrusion width = 0.67mm
; top infill extrusion width = 0.67mm

M104 S215 T0 ; set temperature
M104 S215 T1 ; set temperature
M104 S215 T2 ; set temperature
M104 S215 T3 ; set temperature
M104 S215 T4 ; set temperature
M104 S215 T5 ; set temperature
M104 S215 T6 ; set temperature
M104 S215 T7 ; set temperature
M104 S215 T8 ; set temperature
M104 S215 T9 ; set temperature
M104 S215 T10 ; set temperature
G28 ; home all axes
M106 ; Fan on
M109 S215 T0 ; wait for temperature to be reached
M109 S215 T1 ; wait for temperature to be reached
M109 S215 T2 ; wait for temperature to be reached
M109 S215 T3 ; wait for temperature to be reached
M109 S215 T4 ; wait for temperature to be reached
M109 S215 T5 ; wait for temperature to be reached
M109 S215 T6 ; wait for temperature to be reached
M109 S215 T7 ; wait for temperature to be reached
M109 S215 T8 ; wait for temperature to be reached
M109 S215 T9 ; wait for temperature to be reached
M109 S215 T10 ; wait for temperature to be reached
G21 ; set units to millimeters
G90 ; use absolute coordinates
M82 ; use absolute distances for extrusion
G92 E0
T0
G92 E0
G1 E-4.00000 F780.00000
G92 E0
G1 Z0.260 F4200.000
G1 X49.675 Y50.071 F4200.000
G1 E4.00000 F780.00000
G1 X52.334 Y47.527 E4.18465 F1200.000
G1 X55.121 Y45.124 E4.36930
G1 X58.029 Y42.869 E4.55395
G1 X61.050 Y40.768 E4.73860
G1 X63.846 Y39.022 E4.90401
G1 X67.059 Y37.228 E5.08866
G1 X70.360 Y35.603 E5.27331
G1 X73.742 Y34.151 E5.45796
G1 X77.194 Y32.878 E5.64261
G1 X80.708 Y31.785 E5.82726
G1 X84.274 Y30.875 E6.01191
G1 X87.882 Y30.152 E6.19657
G1 X91.523 Y29.618 E6.38122
G1 X95.187 Y29.273 E6.56587
G1 X98.863 Y29.118 E6.75052
G1 X102.543 Y29.155 E6.93517
G1 X106.598 Y29.417 E7.13907 F1200.000
G1 X109.872 Y29.800 E7.30447
G1 X113.502 Y30.407 E7.48912
G1 X117.467 Y31.295 E7.69302
G1 X121.009 Y32.294 E7.87767
G1 X124.494 Y33.475 E8.06233
G1 X127.560 Y34.685 E8.22773
G1 X130.912 Y36.204 E8.41238
G1 X134.181 Y37.894 E8.59703
G1 X137.357 Y39.751 E8.78168
G1 X140.748 Y41.991 E8.98558
G1 X143.703 Y44.183 E9.17023
G1 X146.541 Y46.526 E9.35489
G1 X149.253 Y49.013 E9.53954
G1 X151.833 Y51.638 E9.72418
G1 X154.025 Y54.100 E9.88959
G1 X156.334 Y56.965 E10.07424
G1 X158.707 Y60.264 E10.27814
G1 X160.491 Y63.036 E10.44354
G1 X162.327 Y66.224 E10.62819
G1 X163.996 Y69.504 E10.81284
G1 X165.492 Y72.866 E10.99749
G1 X166.939 Y76.663 E11.20139
G1 X167.952 Y79.800 E11.36680
G1 X168.840 Y83.071 E11.53687
G1 X169.567 Y86.365 E11.70613
G1 X170.137 Y89.690 E11.87540
G1 X170.548 Y93.038 E12.04467
G1 X170.799 Y96.402 E12.21394
G1 X170.890 Y99.774 E12.38320
G1 X170.828 Y102.837 E12.53695
G1 X170.804 Y103.498 E12.57012
G1 X170.558 Y106.862 E12.73938
G1 X170.151 Y110.211 E12.90865
G1 X169.586 Y113.537 E13.07792
G1 X168.863 Y116.832 E13.24719
G1 X167.980 Y120.104 E13.41726
G1 X166.972 Y123.242 E13.58266
G1 X165.675 Y126.686 E13.76731
G1 X164.038 Y130.405 E13.97121
G1 X162.556 Y133.349 E14.13661
G1 X160.741 Y136.551 E14.32126
G1 X158.547 Y139.971 E14.52516
G1 X156.625 Y142.649 E14.69057
G1 X154.336 Y145.530 E14.87521
G1 X151.900 Y148.288 E15.05987
G1 X149.324 Y150.917 E15.24452
G1 X146.326 Y153.659 E15.44842
G1 X143.781 Y155.755 E15.61382
G1 X140.829 Y157.951 E15.79847
G1 X137.767 Y159.992 E15.98312
G1 X134.893 Y161.700 E16.15084
G1 X134.267 Y162.057 E16.18703
G1 X131.001 Y163.752 E16.37168
G1 X128.004 Y165.124 E16.53708
G1 X124.587 Y166.490 E16.72173
G1 X120.736 Y167.789 E16.92563
G1 X117.563 Y168.680 E17.09103
G1 X113.975 Y169.499 E17.27568
G1 X109.970 Y170.185 E17.47958
G1 X106.315 Y170.608 E17.66423
G1 X102.642 Y170.841 E17.84888
G1 X98.962 Y170.882 E18.03353
G1 X95.668 Y170.757 E18.19894
G1 X92.002 Y170.437 E18.38359
G1 X88.358 Y169.927 E18.56824
G1 X84.745 Y169.229 E18.75289
G1 X81.500 Y168.426 E18.92061
G1 X80.803 Y168.241 E18.95679
G1 X77.288 Y167.153 E19.14144
G1 X74.191 Y166.025 E19.30685
G1 X70.799 Y164.596 E19.49150
G1 X67.146 Y162.817 E19.69540
G1 X64.262 Y161.222 E19.86080
G1 X61.133 Y159.285 E20.04545
G1 X58.109 Y157.188 E20.23010
G1 X55.197 Y154.937 E20.41475
G1 X52.123 Y152.280 E20.61865
G1 X49.745 Y149.998 E20.78406
G1 X47.218 Y147.323 E20.96871
G1 X44.833 Y144.520 E21.15336
G1 X42.597 Y141.597 E21.33801
G1 X40.308 Y138.240 E21.54191
G1 X38.595 Y135.424 E21.70731
G1 X36.840 Y132.190 E21.89196
G1 X35.254 Y128.869 E22.07661
G1 X33.843 Y125.470 E22.26126
G1 X32.493 Y121.638 E22.46516
G1 X31.461 Y118.105 E22.64982
G1 X30.693 Y114.900 E22.81522
G1 X29.953 Y110.904 E23.01912
G1 X29.482 Y107.254 E23.20377
G1 X29.200 Y103.585 E23.38842
G1 X29.107 Y100.093 E23.56374
G1 X29.196 Y96.501 E23.74401
G1 X29.513 Y92.451 E23.94785
G1 X29.940 Y89.184 E24.11320
G1 X30.595 Y85.564 E24.29779
G1 X31.437 Y81.983 E24.48239
G1 X32.388 Y78.710 E24.65340
G1 X32.582 Y78.085 E24.68623
G1 X33.809 Y74.617 E24.87082
G1 X35.061 Y71.569 E25.03617
G1 X36.623 Y68.238 E25.22077
G1 X38.546 Y64.660 E25.42461
G1 X40.462 Y61.519 E25.60920
G1 X42.315 Y58.793 E25.77461
G1 X44.771 Y55.556 E25.97851
G1 X47.152 Y52.750 E26.16316
G1 X49.633 Y50.114 E26.34480
G1 X49.963 Y50.440 F4200.000
G1 X52.372 Y48.120 E26.51261 F1200.000
G1 X55.128 Y45.719 E26.69605
G1 X58.006 Y43.463 E26.87949
G1 X60.996 Y41.360 E27.06293
G1 X64.091 Y39.415 E27.24637
G1 X67.284 Y37.633 E27.42982
G1 X70.564 Y36.020 E27.61326
G1 X73.924 Y34.578 E27.79670
G1 X77.354 Y33.313 E27.98014
G1 X80.845 Y32.228 E28.16359
G1 X84.387 Y31.325 E28.34703
G1 X87.972 Y30.608 E28.53047
G1 X91.589 Y30.077 E28.71391
G1 X95.229 Y29.735 E28.89736
G1 X98.882 Y29.582 E29.08080
G1 X102.537 Y29.619 E29.26424
G1 X106.544 Y29.878 E29.46572 F1200.000
G1 X109.818 Y30.261 E29.63113
G1 X113.424 Y30.864 E29.81457
G1 X117.342 Y31.742 E30.01605
G1 X120.861 Y32.734 E30.19949
G1 X124.323 Y33.907 E30.38294
G1 X127.389 Y35.117 E30.54834
G1 X130.719 Y36.626 E30.73178
G1 X134.281 Y38.480 E30.93326
G1 X137.122 Y40.151 E31.09866
G1 X140.178 Y42.158 E31.28211
G1 X143.125 Y44.321 E31.46555
G1 X145.956 Y46.634 E31.64899
G1 X148.923 Y49.340 E31.85047
G1 X151.240 Y51.684 E32.01587
G1 X153.678 Y54.408 E32.19932
G1 X155.971 Y57.255 E32.38276
G1 X157.917 Y59.944 E32.54927
G1 X158.317 Y60.515 E32.58425
G1 X160.287 Y63.594 E32.76769
G1 X161.924 Y66.455 E32.93309
G1 X163.582 Y69.713 E33.11653
G1 X165.204 Y73.386 E33.31801
G1 X166.378 Y76.467 E33.48342
G1 X167.510 Y79.943 E33.66686
G1 X168.392 Y83.192 E33.83577
G1 X169.176 Y86.788 E34.02047
G1 X169.679 Y89.767 E34.17209
G1 X170.087 Y93.093 E34.34025
G1 X170.336 Y96.435 E34.50841
G1 X170.426 Y99.785 E34.67656
G1 X170.341 Y103.465 E34.86126
G1 X170.097 Y106.808 E35.02942
G1 X169.694 Y110.134 E35.19758
G1 X169.133 Y113.438 E35.36574
G1 X168.415 Y116.712 E35.53390
G1 X167.538 Y119.962 E35.70281
G1 X166.530 Y123.100 E35.86821
G1 X165.105 Y126.854 E36.06969
G1 X163.777 Y129.871 E36.23510
G1 X162.141 Y133.141 E36.41854
G1 X160.338 Y136.321 E36.60198
G1 X158.372 Y139.403 E36.78542
G1 X156.031 Y142.665 E36.98690
G1 X153.973 Y145.240 E37.15231
G1 X151.553 Y147.980 E37.33575
G1 X148.994 Y150.591 E37.51919
G1 X146.551 Y152.837 E37.68570
G1 X146.031 Y153.301 E37.72068
G1 X143.203 Y155.618 E37.90412
G1 X140.553 Y157.578 E38.06952
G1 X137.510 Y159.605 E38.25297
G1 X134.367 Y161.471 E38.43641
G1 X131.131 Y163.172 E38.61985
G1 X127.480 Y164.843 E38.82133
G1 X124.078 Y166.182 E39.00477
G1 X120.955 Y167.236 E39.17018
G1 X117.437 Y168.233 E39.35362
G1 X113.873 Y169.046 E39.53706
G1 X109.915 Y169.724 E39.73854
G1 X106.642 Y170.112 E39.90395
G1 X102.995 Y170.362 E40.08739
G1 X98.980 Y170.418 E40.28887
G1 X95.686 Y170.293 E40.45427
G1 X92.044 Y169.975 E40.63771
G1 X88.069 Y169.408 E40.83920
G1 X84.483 Y168.695 E41.02264
G1 X80.939 Y167.797 E41.20608
G1 X77.788 Y166.831 E41.37148
G1 X74.350 Y165.589 E41.55492
G1 X70.653 Y164.020 E41.75641
G1 X67.690 Y162.577 E41.92181
G1 X64.486 Y160.816 E42.10525
G1 X61.378 Y158.891 E42.28869
G1 X58.374 Y156.807 E42.47214
G1 X55.482 Y154.571 E42.65558
G1 X52.711 Y152.187 E42.83902
G1 X49.813 Y149.407 E43.04050
G1 X47.556 Y147.005 E43.20590
G1 X45.188 Y144.220 E43.38935
G1 X42.967 Y141.316 E43.57279
G1 X40.900 Y138.301 E43.75623
G1 X38.992 Y135.182 E43.93968
G1 X37.248 Y131.969 E44.12311
G1 X35.528 Y128.341 E44.32460
G1 X34.273 Y125.293 E44.49000
G1 X33.049 Y121.848 E44.67344
G1 X31.912 Y117.997 E44.87492
G1 X31.145 Y114.791 E45.04033
G1 X30.470 Y111.199 E45.22377
G1 X29.982 Y107.575 E45.40721
G1 X29.684 Y103.932 E45.59065
G1 X29.574 Y99.807 E45.79768
G1 X29.660 Y96.513 E45.96303
G1 X29.936 Y92.869 E46.14642
G1 X30.456 Y88.889 E46.34784
G1 X31.052 Y85.648 E46.51319
G1 X31.889 Y82.090 E46.69658
G1 X32.910 Y78.581 E46.87996
G1 X33.999 Y75.448 E47.04642
G1 X34.239 Y74.793 E47.08139
G1 X35.635 Y71.416 E47.26477
G1 X37.205 Y68.115 E47.44816
G1 X38.943 Y64.901 E47.63155
G1 X40.846 Y61.780 E47.81494
G1 X42.699 Y59.054 E47.98034
G1 X45.126 Y55.855 E48.18182
G1 X47.491 Y53.067 E48.36526
G1 X49.921 Y50.482 E48.54329
G1 X50.251 Y50.808 F4200.000
G1 X52.694 Y48.455 E48.71350 F1200.000
G1 X55.433 Y46.069 E48.89574
G1 X58.291 Y43.829 E49.07797
G1 X61.262 Y41.741 E49.26020
G1 X64.337 Y39.809 E49.44243
G1 X67.509 Y38.039 E49.62467
G1 X70.768 Y36.437 E49.80690
G1 X74.106 Y35.006 E49.98914
G1 X77.513 Y33.749 E50.17137
G1 X80.982 Y32.672 E50.35360
G1 X84.501 Y31.776 E50.53584
G1 X88.062 Y31.063 E50.71807
G1 X91.655 Y30.537 E50.90031
G1 X95.271 Y30.197 E51.08254
G1 X98.900 Y30.046 E51.26477
G1 X102.531 Y30.083 E51.44701
G1 X106.490 Y30.339 E51.64607 F1200.000
G1 X109.764 Y30.722 E51.81147
G1 X113.346 Y31.322 E51.99371
G1 X117.217 Y32.189 E52.19277
G1 X120.713 Y33.174 E52.37500
G1 X124.153 Y34.339 E52.55724
G1 X127.219 Y35.549 E52.72264
G1 X130.527 Y37.048 E52.90487
G1 X134.046 Y38.880 E53.10394
G1 X136.887 Y40.551 E53.26934
G1 X139.922 Y42.545 E53.45157
G1 X142.850 Y44.695 E53.63381
G1 X145.662 Y46.993 E53.81604
G1 X148.593 Y49.666 E54.01511
G1 X151.139 Y52.255 E54.19734
G1 X153.331 Y54.717 E54.36274
G1 X155.609 Y57.546 E54.54497
G1 X157.540 Y60.215 E54.71028
G1 X157.926 Y60.766 E54.74404
G1 X159.884 Y63.825 E54.92627
G1 X161.522 Y66.686 E55.09168
G1 X163.167 Y69.923 E55.27391
G1 X164.771 Y73.552 E55.47298
G1 X165.944 Y76.632 E55.63838
G1 X167.068 Y80.085 E55.82061
G1 X167.943 Y83.312 E55.98837
G1 X168.719 Y86.865 E56.17085
G1 X169.266 Y90.149 E56.33789
G1 X169.656 Y93.455 E56.50495
G1 X169.873 Y96.469 E56.65657
G1 X169.962 Y99.797 E56.82362
G1 X169.878 Y103.433 E57.00610
G1 X169.636 Y106.753 E57.17315
G1 X169.236 Y110.058 E57.34020
G1 X168.679 Y113.340 E57.50725
G1 X167.966 Y116.592 E57.67430
G1 X167.096 Y119.820 E57.84206
G1 X166.088 Y122.958 E58.00746
G1 X164.680 Y126.667 E58.20652
G1 X163.352 Y129.684 E58.37193
G1 X161.727 Y132.932 E58.55416
G1 X159.935 Y136.091 E58.73639
G1 X157.981 Y139.152 E58.91863
G1 X155.668 Y142.376 E59.11769
G1 X153.611 Y144.951 E59.28309
G1 X151.206 Y147.672 E59.46533
G1 X148.663 Y150.265 E59.64756
G1 X146.238 Y152.495 E59.81286
G1 X145.736 Y152.942 E59.84663
G1 X142.927 Y155.244 E60.02886
G1 X140.277 Y157.205 E60.19426
G1 X137.254 Y159.218 E60.37650
G1 X133.838 Y161.234 E60.57556
G1 X130.614 Y162.908 E60.75779
G1 X127.309 Y164.412 E60.94003
G1 X124.244 Y165.627 E61.10543
G1 X120.806 Y166.796 E61.28766
G1 X117.312 Y167.786 E61.46990
G1 X113.771 Y168.593 E61.65213
G1 X109.861 Y169.263 E61.85120
G1 X106.587 Y169.651 E62.01660
G1 X102.964 Y169.899 E62.19883
G1 X98.998 Y169.954 E62.39789
G1 X95.704 Y169.830 E62.56330
G1 X92.086 Y169.513 E62.74553
G1 X88.158 Y168.952 E62.94460
G1 X84.596 Y168.245 E63.12683
G1 X81.076 Y167.354 E63.30906
G1 X77.924 Y166.387 E63.47446
G1 X74.509 Y165.152 E63.65670
G1 X70.857 Y163.603 E63.85576
G1 X67.893 Y162.159 E64.02116
G1 X64.711 Y160.410 E64.20340
G1 X61.624 Y158.497 E64.38563
G1 X58.640 Y156.427 E64.56787
G1 X55.767 Y154.204 E64.75010
G1 X53.014 Y151.836 E64.93233
G1 X50.151 Y149.090 E65.13140
G1 X47.671 Y146.437 E65.31363
G1 X45.332 Y143.659 E65.49586
G1 X43.336 Y141.035 E65.66126
G1 X41.283 Y138.039 E65.84350
G1 X39.221 Y134.650 E66.04256
G1 X37.505 Y131.450 E66.22480
G1 X36.093 Y128.471 E66.39020
G1 X34.582 Y124.803 E66.58926
G1 X33.383 Y121.375 E66.77150
G1 X32.364 Y117.889 E66.95373
G1 X31.596 Y114.683 E67.11913
G1 X30.926 Y111.114 E67.30137
G1 X30.443 Y107.515 E67.48360
G1 X30.146 Y103.895 E67.66584
G1 X30.038 Y99.820 E67.87041
G1 X30.124 Y96.525 E68.03576
G1 X30.398 Y92.905 E68.21794
G1 X30.912 Y88.973 E68.41694
G1 X31.577 Y85.403 E68.59912
G1 X32.427 Y81.874 E68.78130
G1 X33.355 Y78.712 E68.94665
G1 X34.549 Y75.283 E69.12883
G1 X36.055 Y71.614 E69.32783
G1 X37.613 Y68.335 E69.51001
G1 X39.340 Y65.141 E69.69219
G1 X41.049 Y62.324 E69.85754
G1 X43.083 Y59.315 E70.03977
G1 X45.481 Y56.155 E70.23883
G1 X47.829 Y53.385 E70.42107
G1 X50.209 Y50.851 E70.59548
G1 E67.59548 F780.00000
G92 E0
T1
G92 E0
G1 E-4.00000 F780.00000
G92 E0
G1 X48.132 Y65.438 F4200.000
G1 E4.00000 F780.00000
G1 X48.051 Y65.357 E4.00575 F1200.000
G1 X48.317 Y64.965 E4.02957
G1 X49.972 Y66.621 E4.14732
G1 E0.14732 F780.00000
G92 E0
G1 X51.813 Y67.803 F4200.000
G1 E4.00000 F780.00000
G1 X48.584 Y64.574 E4.22975 F1200.000
G1 X48.850 Y64.182 E4.25357
G1 X53.654 Y68.986 E4.59532
G1 E0.59532 F780.00000
G92 E0
G1 X55.495 Y70.168 F4200.000
G1 E4.00000 F780.00000
G1 X49.116 Y63.790 E4.45374 F1200.000
G1 X49.390 Y63.405 E4.47748
G1 X57.025 Y71.041 E5.02066
G1 X57.292 Y70.650 E5.04447
G1 X49.673 Y63.031 E5.58646
G1 X49.957 Y62.657 E5.61009
G1 X57.560 Y70.259 E6.15089
G1 X57.827 Y69.868 E6.17471
G1 X50.241 Y62.283 E6.71433
G1 X50.525 Y61.908 E6.73795
G1 X58.097 Y69.480 E7.27658
G1 X58.383 Y69.109 E7.30019
G1 X50.809 Y61.534 E7.83900
G1 X51.093 Y61.160 E7.86263
G1 X58.670 Y68.737 E8.40163
G1 X58.956 Y68.365 E8.42523
G1 X51.385 Y60.794 E8.96380
G1 X51.687 Y60.438 E8.98729
G1 X59.243 Y67.994 E9.52481
G1 X59.529 Y67.622 E9.54842
G1 X51.988 Y60.081 E10.08489
G1 X52.289 Y59.724 E10.10838
G1 X59.816 Y67.250 E10.64382
G1 X60.118 Y66.895 E10.66730
G1 X52.590 Y59.367 E11.20282
G1 X52.891 Y59.010 E11.22631
G1 X60.423 Y66.542 E11.76213
G1 X60.729 Y66.189 E11.78560
