; generated by Slic3r 1.1.7 on 2015-03-31 at 13:47:03

; perimeters extrusion width = 0.40mm
; infill extrusion width = 0.42mm
; solid infill extrusion width = 0.42mm
; top infill extrusion width = 0.42mm

G21 ; set units to millimeters
M104 S215 T0 ; set temperature
M104 S215 T1 ; set temperature
G28 ; home all axes
M106 ; Fan on
M109 S215 T0 ; wait for temperature to be reached
M109 S215 T1 ; wait for temperature to be reached
G90 ; use absolute coordinates
G92 E0
M82 ; use absolute distances for extrusion
T0
G92 E0
G1 F780.000 E-4.00000
G92 E0
G1 Z0.300 F4200.000
G1 X10.000 Y72.279 F4200.000
G1 E4.00000 F780.000
G1 X210.000 Y72.279 E17.89641 F2880.000
G1 X212.437 Y72.676 E18.06797
G1 X214.622 Y73.827 E18.23954
G1 X216.327 Y75.613 E18.41111
G1 X217.377 Y77.847 E18.58267
G1 X217.671 Y79.854 E18.72359
G1 X217.771 Y87.950 E19.28615
G1 X217.733 Y129.813 E22.19491
G1 X217.633 Y130.813 E22.26474
G1 X216.995 Y133.199 E22.43630
G1 X215.633 Y135.258 E22.60787
G1 X213.686 Y136.778 E22.77944
G1 X211.358 Y137.600 E22.95100
G1 X210.000 Y137.721 E23.04574
G1 X9.900 Y137.721 E36.94910
G1 X7.463 Y137.324 E37.12066
G1 X5.278 Y136.173 E37.29223
G1 X3.573 Y134.387 E37.46379
G1 X2.523 Y132.153 E37.63536
G1 X2.229 Y130.050 E37.78288
G1 X2.229 Y88.764 E40.65153
G1 X2.329 Y79.864 E41.26996
G1 X2.754 Y77.431 E41.44152
G1 X3.929 Y75.260 E41.61309
G1 X5.734 Y73.574 E41.78465
G1 X7.980 Y72.549 E41.95622
G1 X9.941 Y72.287 E42.09364
G1 X10.000 Y72.836 F4200.000
G1 X210.000 Y72.836 E55.99005 F2880.000
G1 X212.344 Y73.233 E56.15522
G1 X214.426 Y74.380 E56.32040
G1 X216.014 Y76.149 E56.48557
G1 X216.930 Y78.343 E56.65075
G1 X217.114 Y79.861 E56.75700
G1 X217.214 Y87.950 E57.31908
G1 X217.179 Y129.758 E60.22399
G1 X217.079 Y130.758 E60.29382
G1 X216.450 Y133.051 E60.45899
G1 X215.102 Y135.008 E60.62417
G1 X213.183 Y136.412 E60.78934
G1 X210.000 Y137.164 E61.01661
G1 X9.900 Y137.164 E74.91997
G1 X7.556 Y136.767 E75.08514
G1 X5.474 Y135.620 E75.25032
G1 X3.886 Y133.851 E75.41550
G1 X2.970 Y131.657 E75.58067
G1 X2.786 Y130.050 E75.69306
G1 X2.786 Y88.770 E78.56128
G1 X2.886 Y79.870 E79.17971
G1 X3.310 Y77.531 E79.34488
G1 X4.480 Y75.462 E79.51006
G1 X6.267 Y73.894 E79.67524
G1 X8.471 Y73.002 E79.84041
G1 X9.940 Y72.842 E79.94312
G1 F780.000 E76.94312
G92 E0
T1
G92 E0
G1 X10.000 Y73.393 F4200.000
G1 X210.000 Y73.393 E13.89641 F2880.000
G1 X212.247 Y73.790 E14.05494
G1 X214.222 Y74.933 E14.21347
G1 X215.685 Y76.683 E14.37200
G1 X216.557 Y79.868 E14.60144
G1 X216.657 Y87.950 E15.16303
G1 X216.625 Y129.703 E18.06408
G1 X216.525 Y130.703 E18.13391
G1 X215.906 Y132.899 E18.29244
G1 X214.572 Y134.750 E18.45097
G1 X212.685 Y136.032 E18.60950
G1 X210.000 Y136.607 E18.80030
G1 X9.900 Y136.607 E32.70365
G1 X7.653 Y136.210 E32.86218
G1 X5.678 Y135.067 E33.02071
G1 X4.215 Y133.317 E33.17924
G1 X3.343 Y130.050 E33.41419
G1 X3.343 Y88.776 E36.28197
G1 X3.443 Y79.876 E36.90040
G1 X3.866 Y77.634 E37.05893
G1 X5.030 Y75.672 E37.21746
G1 X6.797 Y74.228 E37.37599
G1 X9.942 Y73.408 E37.60182
G1 F780.000 E34.60182
G92 E0
T0
G92 E0
G1 F780.000 E-1.00000
G92 E0
G1 X11.971 Y85.979 F4200.000
G1 E4.00000 F780.000
G1 X11.971 Y81.921 E4.28192 F2640.000
G1 X208.029 Y81.921 E17.90440
G1 X208.029 Y85.979 E18.18633
G1 X12.031 Y85.979 E31.80463
G1 X11.414 Y86.536 F4200.000
G1 X11.414 Y81.364 E32.16397 F2640.000
G1 X208.586 Y81.364 E45.86386
G1 X208.586 Y86.536 E46.22320
G1 X11.474 Y86.536 E59.91893
G1 X10.857 Y87.093 F4200.000
G1 X10.857 Y80.807 E60.35568 F2640.000
G1 X209.143 Y80.807 E74.13298
G1 X209.143 Y87.093 E74.56974
G1 X10.917 Y87.093 E88.34287
G1 X10.300 Y87.650 F4200.000
G1 X10.300 Y80.250 E88.85704 F1848.000
G1 X209.700 Y80.250 E102.71176
G1 X209.700 Y87.650 E103.22593
G1 X10.360 Y87.650 E117.07648
G1 X10.500 Y87.304 F4200.000
G1 F780.000 E113.07648
G92 E0
G1 X210.000 Y129.950 F4200.000
G1 E4.00000 F780.000
G93 R0
G1 X10.100 Y129.950 E17.88946 F1848.000
G1 X10.017 Y129.933 E17.89534
G1 X10.000 Y129.850 E17.90122
G1 X10.000 Y129.050 E17.95680
G1 X10.017 Y128.967 E17.96268
G1 X10.100 Y128.950 E17.96856
G93 R100
G1 X209.900 Y128.950 E31.85107
G1 X209.983 Y128.933 E31.85695
G1 X210.000 Y128.850 E31.86283
G1 X210.000 Y128.050 E31.91841
G1 X209.900 Y127.950 E31.92824
G93 R0
G1 X10.100 Y127.950 E45.81075
G1 X10.017 Y127.933 E45.81663
G1 X10.000 Y127.850 E45.82251
G1 X10.000 Y127.050 E45.87809
G1 X10.017 Y126.967 E45.88397
G1 X10.100 Y126.950 E45.88985
G1 X209.900 Y126.950 E59.77236
G93 R100
G1 X209.983 Y126.933 E59.77824
G1 X210.000 Y126.850 E59.78412
G1 X210.000 Y126.050 E59.83970
G1 X209.900 Y125.950 E59.84953
G93 R0
G1 X10.100 Y125.950 E73.73204
G1 X10.017 Y125.933 E73.73792
G1 X10.000 Y125.850 E73.74380
G1 X10.000 Y125.050 E73.79938
G1 X10.017 Y124.967 E73.80526
G1 X10.100 Y124.950 E73.81114
G93 R100
G1 X209.900 Y124.950 E87.69365
G1 X209.983 Y124.933 E87.69953
G1 X210.000 Y124.850 E87.70541
G1 X210.000 Y124.050 E87.76099
G1 X209.900 Y123.950 E87.77082
G93 R0
G1 X10.100 Y123.950 E101.65333
G1 X10.017 Y123.933 E101.65921
G1 X10.000 Y123.850 E101.66509
G1 X10.000 Y123.050 E101.72067
G1 X10.017 Y122.967 E101.72655
G1 X10.100 Y122.950 E101.73243
G93 R100
G1 X209.900 Y122.950 E115.61494
G1 X209.983 Y122.933 E115.62082
G1 X210.000 Y122.850 E115.62670
G1 X210.000 Y122.050 E115.68228
G1 X209.900 Y121.950 E115.69211
G93 R0
G1 X10.100 Y121.950 E129.57462
G1 X10.017 Y121.933 E129.58050
G1 X10.000 Y121.850 E129.58638
G1 X10.000 Y121.050 E129.64196
G1 X10.017 Y120.967 E129.64784
G1 X10.100 Y120.950 E129.65372
G93 R100
G1 X209.900 Y120.950 E143.53623
G1 X209.983 Y120.933 E143.54211
G1 X210.000 Y120.850 E143.54799
G1 X210.000 Y120.050 E143.60358
G1 X209.900 Y119.950 E143.61340
G93 R0
G1 X10.100 Y119.950 E157.49591
G1 X10.017 Y119.933 E157.50179
G1 X10.000 Y119.850 E157.50767
G1 X10.000 Y119.050 E157.56326
G1 X10.017 Y118.967 E157.56913
G1 X10.100 Y118.950 E157.57501
G93 R100
G1 X209.900 Y118.950 E171.45752
G1 X209.983 Y118.933 E171.46340
G1 X210.000 Y118.850 E171.46928
G1 X210.000 Y118.050 E171.52487
G1 X209.900 Y117.950 E171.53469
G93 R0
G1 X10.100 Y117.950 E185.41720
G1 X10.017 Y117.933 E185.42308
G1 X10.000 Y117.850 E185.42896
G1 X10.000 Y117.050 E185.48455
G1 X10.017 Y116.967 E185.49043
G1 X10.100 Y116.950 E185.49630
G93 R100
G1 X209.900 Y116.950 E199.37881
G1 X209.983 Y116.933 E199.38469
G1 X210.000 Y116.850 E199.39057
G1 X210.000 Y116.050 E199.44616
G1 X209.900 Y115.950 E199.45598
G93 R0
G1 X10.100 Y115.950 E213.33850
G1 X10.017 Y115.933 E213.34437
G1 X10.000 Y115.850 E213.35025
G1 X10.000 Y115.050 E213.40584
G1 X10.017 Y114.967 E213.41172
G1 X10.100 Y114.950 E213.41759
G93 R100
G1 X209.900 Y114.950 E227.30011
G1 X209.983 Y114.933 E227.30598
G1 X210.000 Y114.850 E227.31186
G1 X210.000 Y114.050 E227.36745
G1 X209.900 Y113.950 E227.37728
G93 R0
G1 X10.100 Y113.950 E241.25979
G1 X10.017 Y113.933 E241.26566
G1 X10.000 Y113.850 E241.27154
G1 X10.000 Y113.050 E241.32713
G1 X10.017 Y112.967 E241.33301
G1 X10.100 Y112.950 E241.33888
G93 R100
G1 X209.900 Y112.950 E255.22140
G1 X209.983 Y112.933 E255.22728
G1 X210.000 Y112.850 E255.23315
G1 X210.000 Y112.050 E255.28874
G1 X209.900 Y111.950 E255.29857
G93 R0
G1 X10.100 Y111.950 E269.18108
G1 X10.017 Y111.933 E269.18696
G1 X10.000 Y111.850 E269.19283
G1 X10.000 Y111.050 E269.24842
G1 X10.017 Y110.967 E269.25430
G1 X10.100 Y110.950 E269.26018
G93 R100
G1 X209.900 Y110.950 E283.14269
G1 X209.983 Y110.933 E283.14857
G1 X210.000 Y110.850 E283.15445
G1 X210.000 Y110.050 E283.21003
G1 X209.900 Y109.950 E283.21986
G93 R0
G1 X10.100 Y109.950 E297.10237
G1 X10.017 Y109.933 E297.10825
G1 X10.000 Y109.850 E297.11413
G1 X10.000 Y109.050 E297.16971
G1 X10.017 Y108.967 E297.17559
G1 X10.100 Y108.950 E297.18147
G93 R100
G1 X209.900 Y108.950 E311.06398
G1 X209.983 Y108.933 E311.06986
G1 X210.000 Y108.850 E311.07574
G1 X210.000 Y108.050 E311.13132
G1 X209.900 Y107.950 E311.14115
G93 R0
G1 X10.100 Y107.950 E325.02366
G1 X10.017 Y107.933 E325.02954
G1 X10.000 Y107.850 E325.03542
G1 X10.000 Y107.050 E325.09100
G1 X10.017 Y106.967 E325.09688
G1 X10.100 Y106.950 E325.10276
G93 R100
G1 X209.900 Y106.950 E338.98527
G1 X209.983 Y106.933 E338.99115
G1 X210.000 Y106.850 E338.99703
G1 X210.000 Y106.050 E339.05261
G1 X209.900 Y105.950 E339.06244
G93 R0
G1 X10.100 Y105.950 E352.94495
G1 X10.017 Y105.933 E352.95083
G1 X10.000 Y105.850 E352.95671
G1 X10.000 Y105.050 E353.01229
G1 X10.017 Y104.967 E353.01817
G1 X10.100 Y104.950 E353.02405
G93 R100
G1 X209.900 Y104.950 E366.90656
G1 X209.983 Y104.933 E366.91244
G1 X210.000 Y104.850 E366.91832
G1 X210.000 Y104.050 E366.97390
G1 X209.900 Y103.950 E366.98373
G93 R0
G1 X10.100 Y103.950 E380.86624
G1 X10.017 Y103.933 E380.87212
G1 X10.000 Y103.850 E380.87800
G1 X10.000 Y103.050 E380.93358
G1 X10.017 Y102.967 E380.93946
G1 X10.100 Y102.950 E380.94534
G93 R100
G1 X209.900 Y102.950 E394.82785
G1 X209.983 Y102.933 E394.83373
G1 X210.000 Y102.850 E394.83961
G1 X210.000 Y102.050 E394.89519
G1 X209.900 Y101.950 E394.90502
G93 R0
G1 X10.100 Y101.950 E408.78753
G1 X10.017 Y101.933 E408.79341
G1 X10.000 Y101.850 E408.79929
G1 X10.000 Y101.050 E408.85487
G1 X10.017 Y100.967 E408.86075
G1 X10.100 Y100.950 E408.86663
G93 R100
G1 X209.900 Y100.950 E422.74914
G1 X209.983 Y100.933 E422.75502
G1 X210.000 Y100.850 E422.76090
G1 X210.000 Y100.050 E422.81649
G1 X209.900 Y99.950 E422.82631
G93 R0
G1 X10.100 Y99.950 E436.70882
G1 X10.017 Y99.933 E436.71470
G1 X10.000 Y99.850 E436.72058
G1 X10.000 Y99.050 E436.77617
G1 X10.017 Y98.967 E436.78204
G1 X10.100 Y98.950 E436.78792
G93 R100
G1 X209.900 Y98.950 E450.67043
G1 X209.983 Y98.933 E450.67631
G1 X210.000 Y98.850 E450.68219
G1 X210.000 Y98.050 E450.73778
G1 X209.900 Y97.950 E450.74760
G93 R0
G1 X10.100 Y97.950 E464.63012
G1 X10.017 Y97.933 E464.63599
G1 X10.000 Y97.850 E464.64187
G1 X10.000 Y97.050 E464.69746
G1 X10.017 Y96.967 E464.70334
G1 X10.100 Y96.950 E464.70921
G93 R100
G1 X209.900 Y96.950 E478.59173
G1 X209.983 Y96.933 E478.59760
G1 X210.000 Y96.850 E478.60348
G1 X210.000 Y96.050 E478.65907
G1 X209.900 Y95.950 E478.66889
G93 R0
G1 X10.100 Y95.950 E492.55141
G1 X10.017 Y95.933 E492.55728
G1 X10.000 Y95.850 E492.56316
G1 X10.000 Y95.050 E492.61875
G1 X10.017 Y94.967 E492.62463
G1 X10.100 Y94.950 E492.63050
G93 R100
G1 X209.900 Y94.950 E506.51302
G1 X209.983 Y94.933 E506.51890
G1 X210.000 Y94.850 E506.52477
G1 X210.000 Y94.050 E506.58036
G1 X209.900 Y93.950 E506.59019
G93 R0
G1 X10.100 Y93.950 E520.47270
G1 X10.017 Y93.933 E520.47858
G1 X10.000 Y93.850 E520.48445
G1 X10.000 Y93.050 E520.54004
G1 X10.017 Y92.967 E520.54592
G1 X10.100 Y92.950 E520.55180
G93 R100
G1 X209.900 Y92.950 E534.43431
G1 X209.983 Y92.933 E534.44019
G1 X210.000 Y92.850 E534.44606
G1 X210.000 Y92.050 E534.50165
G1 X209.900 Y91.950 E534.51148
G93 R0
G1 X10.100 Y91.950 E548.39399
G1 X10.017 Y91.933 E548.39987
G1 X10.000 Y91.850 E548.40575
G1 X10.000 Y91.050 E548.46133
G1 X10.017 Y90.967 E548.46721
G1 X10.100 Y90.950 E548.47309
G93 R100
G1 X209.900 Y90.950 E562.35560
G1 X209.983 Y90.933 E562.36148
G1 X210.000 Y90.850 E562.36736
G1 X210.000 Y90.050 E562.42294
G1 X209.900 Y89.950 E562.43277
G93 R0
G1 X10.100 Y89.950 E576.31528
G1 X10.017 Y89.933 E576.32116
G1 X10.000 Y89.850 E576.32704
G1 X10.000 Y89.050 E576.38262
G1 X10.017 Y88.967 E576.38850
G1 X10.100 Y88.950 E576.39438
G93 R100
G1 X209.900 Y88.950 E590.27689
G1 X209.983 Y88.933 E590.28277
G1 X210.000 Y88.850 E590.28865
G1 X210.000 Y87.950 E590.35118
G1 F780.000 E586.35118
G92 E0
G92 E0
M104 S0 ; turn off temperature
G28 X0  ; home X axis
M84     ; disable motors
; filament used = 869.0mm (2.1cm3)
; filament used = 38.6mm (0.1cm3)

; avoid_crossing_perimeters = 0
; bed_size = 200,200
; bed_temperature = 0
; bridge_acceleration = 0
; bridge_fan_speed = 100
; bridge_flow_ratio = 1
; brim_width = 0
; complete_objects = 0
; cooling = 0
; default_acceleration = 0
; disable_fan_first_layers = 1
; duplicate_distance = 6
; end_gcode = M104 S0 ; turn off temperature\nG28 X0  ; home X axis\nM84     ; disable motors
; external_perimeters_first = 0
; extruder_clearance_height = 20
; extruder_clearance_radius = 20
; extruder_offset = 0x0,0x0
; extrusion_axis = E
; extrusion_multiplier = 1,1,1
; fan_always_on = 1
; fan_below_layer_time = 60
; filament_diameter = 1.75,1.75,1.75
; first_layer_acceleration = 0
; first_layer_bed_temperature = 0
; first_layer_extrusion_width = 200%
; first_layer_speed = 80%
; first_layer_temperature = 215,215,215
; g0 = 0
; gcode_arcs = 0
; gcode_comments = 0
; gcode_flavor = reprap
; infill_acceleration = 0
; infill_first = 0
; layer_gcode = 
; max_fan_speed = 100
; min_fan_speed = 100
; min_print_speed = 10
; min_skirt_length = 0
; notes = 
; nozzle_diameter = 0.4,0.4
; only_retract_when_crossing_perimeters = 0
; ooze_prevention = 0
; output_filename_format = [input_filename_base].gcode
; perimeter_acceleration = 0
; post_process = 
; print_center = 110,105
; resolution = 0
; retract_before_travel = 2,2
; retract_layer_change = 1,1
; retract_length = 4,4
; retract_length_toolchange = 3,3
; retract_lift = 0,0
; retract_restart_extra = 0,0
; retract_restart_extra_toolchange = 0,0
; retract_speed = 13,13
; skirt_distance = 6
; skirt_height = 1
; skirts = 3
; slowdown_below_layer_time = 15
; spiral_vase = 0
; standby_temperature_delta = -5
; start_gcode = G28 ; home all axes\nM106 ; Fan on
; temperature = 215,215,215
; threads = 6
; toolchange_gcode = 
; travel_speed = 70
; use_firmware_retraction = 0
; use_relative_e_distances = 0
; vibration_limit = 0
; wipe = 0,0
; z_offset = 0
; dont_support_bridges = 1
; extrusion_width = 0
; first_layer_height = 0.3
; infill_only_where_needed = 0
; interface_shells = 0
; layer_height = 0.3
; raft_layers = 0
; seam_position = nearest
; support_material = 0
; support_material_angle = 0
; support_material_enforce_layers = 0
; support_material_extruder = 2
; support_material_extrusion_width = 0
; support_material_interface_extruder = 1
; support_material_interface_layers = 0
; support_material_interface_spacing = 0
; support_material_interface_speed = 100%
; support_material_pattern = rectilinear
; support_material_spacing = 2
; support_material_speed = 60
; support_material_threshold = 60
; bottom_solid_layers = 2
; bridge_speed = 10
; external_perimeter_speed = 70%
; extra_perimeters = 1
; fill_angle = 45
; fill_density = 9%
; fill_pattern = rectilinear
; gap_fill_speed = 20
; infill_every_layers = 1
; infill_extruder = 1
; infill_extrusion_width = 0
; infill_speed = 70
; overhangs = 1
; perimeter_extruder = 1
; perimeter_extrusion_width = 0
; perimeter_speed = 55
; perimeters = 4
; small_perimeter_speed = 70%
; solid_fill_pattern = rectilinear
; solid_infill_below_area = 100
; solid_infill_every_layers = 0
; solid_infill_extrusion_width = 0
; solid_infill_speed = 60
; thin_walls = 1
; top_infill_extrusion_width = 0
; top_solid_infill_speed = 50
; top_solid_layers = 5

